<?xml version="1.0" encoding="UTF-8"?>
<map version="1.10" tiledversion="1.12.1" orientation="orthogonal" renderorder="right-down" width="34" height="29" tilewidth="32" tileheight="32" infinite="0" nextlayerid="24" nextobjectid="551">
 <tileset firstgid="1" name="lab" tilewidth="160" tileheight="132" tilecount="27" columns="0">
  <grid orientation="orthogonal" width="1" height="1"/>
  <tile id="79">
   <image source="../lab/ban phim.png" width="25" height="13"/>
  </tile>
  <tile id="80">
   <image source="../lab/ban_lab.png" width="63" height="36"/>
  </tile>
  <tile id="81">
   <image source="../lab/chuot.png" width="9" height="12"/>
  </tile>
  <tile id="82">
   <image source="../lab/man_hinh.png" width="40" height="36"/>
  </tile>
  <tile id="83">
   <image source="../lab/sprite_0000.png" width="148" height="20"/>
  </tile>
  <tile id="84">
   <image source="../lab/sprite_0001.png" width="34" height="74"/>
  </tile>
  <tile id="85">
   <image source="../lab/sprite_0002.png" width="36" height="113"/>
  </tile>
  <tile id="86">
   <image source="../lab/sprite_0003.png" width="28" height="28"/>
  </tile>
  <tile id="87">
   <image source="../lab/sprite_0004.png" width="68" height="32"/>
  </tile>
  <tile id="88">
   <image source="../lab/sprite_0005.png" width="36" height="36"/>
  </tile>
  <tile id="89">
   <image source="../lab/sprite_0006.png" width="32" height="44"/>
  </tile>
  <tile id="90">
   <image source="../lab/sprite_0007.png" width="32" height="68"/>
  </tile>
  <tile id="91">
   <image source="../lab/sprite_0008.png" width="128" height="72"/>
  </tile>
  <tile id="92">
   <image source="../lab/sprite_0009.png" width="32" height="32"/>
  </tile>
  <tile id="93">
   <image source="../lab/sprite_0010.png" width="32" height="32"/>
  </tile>
  <tile id="94">
   <image source="../lab/sprite_0011.png" width="32" height="32"/>
  </tile>
  <tile id="95">
   <image source="../lab/sprite_0012.png" width="116" height="48"/>
  </tile>
  <tile id="96">
   <image source="../lab/sprite_0013.png" width="64" height="72"/>
  </tile>
  <tile id="97">
   <image source="../lab/sprite_0014.png" width="156" height="132"/>
  </tile>
  <tile id="98">
   <image source="../lab/sprite_0015.png" width="28" height="36"/>
  </tile>
  <tile id="99">
   <image source="../lab/sprite_0016.png" width="36" height="47"/>
  </tile>
  <tile id="100">
   <image source="../lab/sprite_0018.png" width="70" height="67"/>
  </tile>
  <tile id="101">
   <image source="../lab/sprite_0019.png" width="160" height="87"/>
  </tile>
  <tile id="102">
   <image source="../lab/sprite_0020.png" width="43" height="32"/>
  </tile>
  <tile id="103">
   <image source="../lab/sprite_0021.png" width="48" height="61"/>
  </tile>
  <tile id="104">
   <image source="../lab/sprite_0022.png" width="102" height="69"/>
  </tile>
  <tile id="105">
   <image source="../lab/sprite_0023.png" width="84" height="130"/>
  </tile>
 </tileset>
 <tileset firstgid="107" source="../tsx/lab.tsx"/>
 <layer id="7" name="floor" width="34" height="29">
  <data encoding="csv">
0,0,0,0,0,0,0,0,0,0,0,0,0,0,0,0,0,0,0,0,0,0,0,0,0,0,0,0,0,0,0,0,0,0,
0,0,0,0,0,0,0,0,0,0,0,0,0,0,0,0,0,0,0,0,0,0,0,0,0,0,0,0,0,0,0,0,0,0,
0,0,0,0,0,0,0,0,0,0,0,0,0,0,0,0,0,0,0,0,0,0,0,0,0,0,0,0,0,0,0,0,0,0,
0,0,0,0,0,0,0,0,0,0,0,0,0,0,0,0,0,0,0,0,0,0,0,0,0,0,0,0,0,0,0,0,0,0,
0,0,0,0,0,0,0,0,0,0,0,0,0,0,0,0,0,0,0,0,0,0,0,0,0,0,0,0,0,0,0,0,0,0,
199,199,199,199,199,199,199,199,199,199,199,199,199,199,199,199,199,199,199,199,199,199,199,199,199,199,199,199,199,199,199,199,199,199,
199,199,199,199,199,199,199,199,199,199,199,199,199,199,199,199,199,199,199,199,199,199,199,199,199,199,199,199,199,199,199,199,199,199,
199,199,199,199,201,201,201,201,199,199,199,199,199,199,199,199,199,199,199,199,199,199,199,199,199,199,199,199,199,199,199,199,199,199,
199,199,199,199,201,199,199,199,199,199,199,199,199,199,199,199,199,199,199,199,199,199,199,199,199,199,199,199,201,201,199,199,199,199,
199,199,199,199,199,199,199,199,199,199,199,199,199,199,199,199,199,201,199,199,199,199,199,199,199,199,199,199,201,199,199,199,199,199,
199,201,199,199,199,199,199,199,199,199,199,199,199,199,199,199,201,201,199,199,199,199,199,199,199,199,199,199,199,199,199,199,199,199,
199,201,201,201,199,199,199,199,199,201,199,199,199,199,199,201,199,199,199,199,199,199,199,201,201,199,199,199,199,199,199,199,199,199,
199,199,199,199,199,199,199,199,199,201,201,201,199,199,199,199,201,199,199,199,199,199,201,199,201,199,199,199,199,199,199,199,199,199,
199,199,199,199,199,199,199,199,199,199,199,201,201,201,199,199,201,201,199,199,199,201,199,199,199,199,199,199,199,199,199,199,199,199,
199,199,199,199,199,199,199,199,199,199,199,199,201,201,199,199,199,199,199,199,199,201,199,199,199,199,199,199,199,199,199,199,199,199,
199,199,199,199,199,199,199,199,199,201,201,201,199,199,199,199,199,199,199,199,199,199,199,199,199,199,201,199,199,199,199,199,199,199,
199,199,199,199,199,199,199,201,201,199,199,199,199,199,199,199,199,199,199,199,199,199,199,199,199,199,201,199,199,199,199,199,199,199,
199,199,199,199,199,199,199,199,199,199,201,199,199,199,199,199,199,201,199,199,199,199,201,199,199,199,201,201,201,201,199,199,199,199,
199,199,199,199,199,199,199,199,199,199,201,201,201,201,201,199,201,201,201,201,199,199,199,201,199,199,199,199,201,201,199,199,199,199,
199,199,199,199,199,199,199,199,199,199,199,199,199,199,199,199,201,201,201,199,199,199,199,201,201,199,199,201,199,199,199,199,199,199,
199,199,199,199,199,199,199,199,199,199,199,199,199,199,199,199,201,199,199,199,199,199,199,199,201,199,201,199,199,199,199,199,199,199,
199,199,199,199,199,199,199,199,199,199,199,199,199,199,199,201,201,199,199,199,199,199,199,199,201,201,199,199,199,199,199,199,199,199,
199,199,199,199,199,199,199,199,199,199,199,201,201,199,199,199,199,199,199,199,199,199,201,201,199,199,199,199,199,199,199,199,199,199,
199,199,199,199,199,199,199,199,199,199,199,199,199,199,199,199,199,199,199,201,201,201,201,199,199,199,201,201,201,201,199,199,199,199,
199,199,199,199,199,199,199,199,199,199,199,199,199,199,199,199,201,199,199,199,199,199,199,199,199,199,199,199,199,201,199,199,199,199,
199,199,199,199,199,199,199,199,199,199,199,199,199,199,199,199,199,199,199,199,199,199,199,199,199,199,199,199,199,199,199,199,199,199,
199,199,199,199,199,199,199,199,199,199,199,199,199,199,199,199,199,199,201,199,199,199,199,199,201,199,199,199,199,199,199,199,199,199,
199,199,199,199,199,199,199,199,199,199,199,199,199,199,199,199,199,199,199,199,199,199,199,199,199,199,199,199,199,199,199,199,199,199,
199,199,199,199,199,199,199,199,199,199,199,199,199,199,199,199,199,199,199,199,199,199,199,199,199,199,199,199,199,199,199,199,199,199
</data>
 </layer>
 <objectgroup draworder="index" id="8" name="ban_may_tinh">
  <object id="8" gid="187" x="-260" y="371.333" width="140" height="58"/>
  <object id="7" gid="188" x="-205.833" y="339.917" width="6.25" height="8.25" rotation="-17"/>
  <object id="9" gid="186" x="-240.667" y="341.417" width="25" height="13"/>
  <object id="38" gid="188" x="-144.375" y="339.292" width="6.25" height="8.25"/>
  <object id="39" gid="186" x="-179.209" y="340.792" width="25" height="13" rotation="3"/>
  <object id="41" gid="187" x="308.667" y="354.021" width="140" height="58"/>
  <object id="43" gid="188" x="362.834" y="322.605" width="6.25" height="8.25" rotation="-3"/>
  <object id="44" gid="186" x="328" y="324.105" width="25" height="13"/>
  <object id="47" gid="188" x="424.292" y="321.98" width="6.25" height="8.25"/>
  <object id="48" gid="186" x="389.458" y="323.48" width="25" height="13" rotation="3"/>
  <object id="50" gid="187" x="310" y="479.354" width="140" height="58"/>
  <object id="52" gid="188" x="364.167" y="447.938" width="6.25" height="8.25" rotation="-17"/>
  <object id="53" gid="186" x="329.333" y="449.438" width="25" height="13"/>
  <object id="56" gid="188" x="425.625" y="447.313" width="6.25" height="8.25"/>
  <object id="57" gid="186" x="390.791" y="448.813" width="25" height="13" rotation="3"/>
  <object id="59" gid="187" x="304.667" y="607.354" width="140" height="58"/>
  <object id="61" gid="188" x="358.834" y="575.938" width="6.25" height="8.25" rotation="-17"/>
  <object id="62" gid="186" x="324" y="577.438" width="25" height="13"/>
  <object id="63" gid="215" x="331.334" y="614.688" width="33" height="42"/>
  <object id="65" gid="188" x="420.292" y="575.313" width="6.25" height="8.25"/>
  <object id="66" gid="186" x="385.458" y="576.813" width="25" height="13" rotation="3"/>
  <object id="68" gid="187" x="308.667" y="735.354" width="140" height="58"/>
  <object id="70" gid="188" x="362.834" y="703.938" width="6.25" height="8.25" rotation="-17"/>
  <object id="71" gid="186" x="328" y="705.438" width="25" height="13"/>
  <object id="74" gid="188" x="424.292" y="703.313" width="6.25" height="8.25"/>
  <object id="75" gid="186" x="389.458" y="704.813" width="25" height="13" rotation="3"/>
  <object id="77" gid="187" x="308.667" y="864.687" width="140" height="58"/>
  <object id="79" gid="188" x="362.834" y="833.271" width="6.25" height="8.25" rotation="-17"/>
  <object id="80" gid="186" x="328" y="834.771" width="25" height="13"/>
  <object id="83" gid="188" x="424.292" y="832.646" width="6.25" height="8.25"/>
  <object id="84" gid="186" x="389.458" y="834.146" width="25" height="13" rotation="3"/>
  <object id="86" gid="187" x="87.3335" y="350.021" width="140" height="58"/>
  <object id="88" gid="188" x="141.501" y="318.605" width="6.25" height="8.25" rotation="-17"/>
  <object id="89" gid="186" x="106.667" y="320.105" width="25" height="13"/>
  <object id="92" gid="188" x="202.959" y="317.98" width="6.25" height="8.25"/>
  <object id="93" gid="186" x="168.125" y="319.48" width="25" height="13" rotation="3"/>
  <object id="95" gid="187" x="88.6665" y="475.354" width="140" height="58"/>
  <object id="97" gid="188" x="142.834" y="443.938" width="6.25" height="8.25" rotation="-17"/>
  <object id="98" gid="186" x="108" y="445.438" width="25" height="13"/>
  <object id="101" gid="188" x="204.292" y="443.313" width="6.25" height="8.25"/>
  <object id="102" gid="186" x="169.458" y="444.813" width="25" height="13" rotation="3"/>
  <object id="104" gid="187" x="83.3335" y="603.354" width="140" height="58"/>
  <object id="106" gid="188" x="137.501" y="571.938" width="6.25" height="8.25" rotation="-17"/>
  <object id="107" gid="186" x="102.667" y="573.438" width="25" height="13"/>
  <object id="110" gid="188" x="198.959" y="571.313" width="6.25" height="8.25"/>
  <object id="111" gid="186" x="164.125" y="572.813" width="25" height="13" rotation="3"/>
  <object id="113" gid="187" x="87.3335" y="731.354" width="140" height="58"/>
  <object id="115" gid="188" x="141.501" y="699.938" width="6.25" height="8.25" rotation="-17"/>
  <object id="116" gid="186" x="106.667" y="701.438" width="25" height="13"/>
  <object id="119" gid="188" x="202.959" y="699.313" width="6.25" height="8.25"/>
  <object id="120" gid="186" x="168.125" y="700.813" width="25" height="13" rotation="3"/>
  <object id="122" gid="187" x="87.3335" y="860.687" width="140" height="58"/>
  <object id="124" gid="188" x="141.501" y="829.271" width="6.25" height="8.25" rotation="-17"/>
  <object id="125" gid="186" x="106.667" y="830.771" width="25" height="13"/>
  <object id="128" gid="188" x="202.959" y="828.646" width="6.25" height="8.25"/>
  <object id="129" gid="186" x="168.125" y="830.146" width="25" height="13" rotation="3"/>
  <object id="131" gid="187" x="635.333" y="354.021" width="140" height="58"/>
  <object id="133" gid="188" x="689.501" y="322.605" width="6.25" height="8.25" rotation="-17"/>
  <object id="134" gid="186" x="654.667" y="324.105" width="25" height="13"/>
  <object id="137" gid="188" x="750.958" y="321.98" width="6.25" height="8.25"/>
  <object id="138" gid="186" x="716.125" y="323.48" width="25" height="13" rotation="3"/>
  <object id="140" gid="187" x="636.667" y="479.354" width="140" height="58"/>
  <object id="142" gid="188" x="690.833" y="447.938" width="6.25" height="8.25" rotation="-17"/>
  <object id="143" gid="186" x="656" y="449.438" width="25" height="13"/>
  <object id="146" gid="188" x="752.292" y="447.313" width="6.25" height="8.25"/>
  <object id="147" gid="186" x="717.457" y="448.813" width="25" height="13" rotation="3"/>
  <object id="149" gid="187" x="631.333" y="607.354" width="140" height="58"/>
  <object id="151" gid="188" x="685.501" y="575.938" width="6.25" height="8.25" rotation="-17"/>
  <object id="152" gid="186" x="650.667" y="577.438" width="25" height="13"/>
  <object id="155" gid="188" x="746.958" y="575.313" width="6.25" height="8.25"/>
  <object id="156" gid="186" x="712.125" y="576.813" width="25" height="13" rotation="3"/>
  <object id="158" gid="187" x="635.333" y="735.354" width="140" height="58"/>
  <object id="160" gid="188" x="689.501" y="703.938" width="6.25" height="8.25" rotation="-17"/>
  <object id="161" gid="186" x="654.667" y="705.438" width="25" height="13"/>
  <object id="164" gid="188" x="750.958" y="703.313" width="6.25" height="8.25"/>
  <object id="165" gid="186" x="716.125" y="704.813" width="25" height="13" rotation="3"/>
  <object id="167" gid="187" x="635.333" y="864.687" width="140" height="58"/>
  <object id="169" gid="188" x="689.501" y="833.271" width="6.25" height="8.25" rotation="-17"/>
  <object id="170" gid="186" x="654.667" y="834.771" width="25" height="13"/>
  <object id="173" gid="188" x="750.958" y="832.646" width="6.25" height="8.25"/>
  <object id="174" gid="186" x="716.125" y="834.146" width="25" height="13" rotation="3"/>
  <object id="176" gid="187" x="867.333" y="350.021" width="140" height="58"/>
  <object id="178" gid="188" x="921.501" y="318.605" width="6.25" height="8.25" rotation="-17"/>
  <object id="179" gid="186" x="886.667" y="320.105" width="25" height="13"/>
  <object id="182" gid="188" x="982.958" y="317.98" width="6.25" height="8.25"/>
  <object id="183" gid="186" x="948.125" y="319.48" width="25" height="13" rotation="3"/>
  <object id="185" gid="187" x="868.667" y="475.354" width="140" height="58"/>
  <object id="187" gid="188" x="922.833" y="443.938" width="6.25" height="8.25" rotation="-17"/>
  <object id="188" gid="186" x="888" y="445.438" width="25" height="13"/>
  <object id="191" gid="188" x="984.292" y="443.313" width="6.25" height="8.25"/>
  <object id="192" gid="186" x="949.457" y="444.813" width="25" height="13" rotation="3"/>
  <object id="194" gid="187" x="863.333" y="603.354" width="140" height="58"/>
  <object id="196" gid="188" x="917.501" y="571.938" width="6.25" height="8.25" rotation="-17"/>
  <object id="197" gid="186" x="882.667" y="573.438" width="25" height="13"/>
  <object id="200" gid="188" x="978.958" y="571.313" width="6.25" height="8.25"/>
  <object id="201" gid="186" x="944.125" y="572.813" width="25" height="13" rotation="3"/>
  <object id="203" gid="187" x="867.333" y="731.354" width="140" height="58"/>
  <object id="205" gid="188" x="921.501" y="699.938" width="6.25" height="8.25" rotation="-17"/>
  <object id="206" gid="186" x="886.667" y="701.438" width="25" height="13"/>
  <object id="209" gid="188" x="982.958" y="699.313" width="6.25" height="8.25"/>
  <object id="210" gid="186" x="948.125" y="700.813" width="25" height="13" rotation="3"/>
  <object id="212" gid="187" x="867.333" y="860.687" width="140" height="58"/>
  <object id="214" gid="188" x="921.501" y="829.271" width="6.25" height="8.25" rotation="-17"/>
  <object id="215" gid="186" x="886.667" y="830.771" width="25" height="13"/>
  <object id="218" gid="188" x="982.958" y="828.646" width="6.25" height="8.25"/>
  <object id="219" gid="186" x="948.125" y="830.146" width="25" height="13" rotation="3"/>
 </objectgroup>
 <objectgroup id="22" name="man_hinh">
  <object id="447" gid="189" x="-238.327" y="327.306" width="36" height="32" rotation="-1"/>
  <object id="448" gid="189" x="-176.869" y="326.681" width="36" height="32" rotation="2"/>
  <object id="449" gid="189" x="330.34" y="309.994" width="36" height="32" rotation="-1"/>
  <object id="450" gid="189" x="331.673" y="435.327" width="36" height="32" rotation="-1"/>
  <object id="451" gid="189" x="393.131" y="434.702" width="36" height="32" rotation="2"/>
  <object id="452" gid="189" x="326.34" y="563.327" width="36" height="32" rotation="-1"/>
  <object id="453" gid="189" x="330.34" y="691.327" width="36" height="32" rotation="-1"/>
  <object id="454" gid="189" x="391.798" y="690.702" width="36" height="32" rotation="2"/>
  <object id="455" gid="189" x="330.34" y="820.66" width="36" height="32" rotation="-1"/>
  <object id="456" gid="189" x="391.798" y="820.035" width="36" height="32"/>
  <object id="457" gid="189" x="110.34" y="431.327" width="36" height="32" rotation="-1"/>
  <object id="458" gid="189" x="171.798" y="430.702" width="36" height="32" rotation="2"/>
  <object id="459" gid="189" x="105.007" y="559.327" width="36" height="32" rotation="-1"/>
  <object id="460" gid="189" x="166.465" y="558.702" width="36" height="32" rotation="2"/>
  <object id="461" gid="189" x="109.007" y="687.327" width="36" height="32" rotation="-1"/>
  <object id="462" gid="189" x="170.465" y="686.702" width="36" height="32"/>
  <object id="463" gid="189" x="109.007" y="816.66" width="36" height="32"/>
  <object id="464" gid="189" x="170.465" y="816.035" width="36" height="32" rotation="2"/>
  <object id="465" gid="189" x="657.007" y="309.994" width="36" height="32" rotation="-1"/>
  <object id="466" gid="189" x="718.464" y="309.369" width="36" height="32" rotation="2"/>
  <object id="467" gid="189" x="658.339" y="435.327" width="36" height="32" rotation="-1"/>
  <object id="468" gid="189" x="719.798" y="434.702" width="36" height="32" rotation="2"/>
  <object id="469" gid="189" x="653.007" y="563.327" width="36" height="32" rotation="-1"/>
  <object id="470" gid="189" x="714.464" y="562.702" width="36" height="32" rotation="2"/>
  <object id="471" gid="189" x="657.007" y="691.327" width="36" height="32" rotation="-1"/>
  <object id="472" gid="189" x="718.464" y="690.702" width="36" height="32" rotation="2"/>
  <object id="473" gid="189" x="657.007" y="820.66" width="36" height="32" rotation="-1"/>
  <object id="474" gid="189" x="889.007" y="305.994" width="36" height="32" rotation="-1"/>
  <object id="475" gid="189" x="950.464" y="305.369" width="36" height="32" rotation="2"/>
  <object id="476" gid="189" x="885.007" y="559.327" width="36" height="32" rotation="-1"/>
  <object id="477" gid="189" x="946.464" y="558.702" width="36" height="32" rotation="2"/>
  <object id="478" gid="189" x="889.007" y="687.327" width="36" height="32" rotation="-1"/>
  <object id="479" gid="189" x="889.007" y="816.66" width="36" height="32" rotation="-1"/>
  <object id="480" gid="189" x="950.464" y="816.035" width="36" height="32" rotation="2"/>
  <object id="481" gid="2147483837" x="171.006" y="306.129" width="36" height="32" rotation="-2"/>
  <object id="482" gid="189" x="393.915" y="561.432" width="36" height="32" rotation="2"/>
  <object id="483" gid="2147483837" x="104.006" y="302.962" width="36" height="32" rotation="2"/>
  <object id="484" gid="189" x="948.673" y="684.939" width="36" height="32" rotation="-1"/>
  <object id="485" gid="189" x="887.339" y="429.023" width="36" height="32"/>
  <object id="486" gid="189" x="946.006" y="428.962" width="36" height="32" rotation="2"/>
  <object id="487" gid="189" x="391.339" y="306.357" width="36" height="32"/>
  <object id="488" gid="189" x="713.461" y="817.715" width="36" height="32" rotation="-1"/>
 </objectgroup>
 <objectgroup id="21" name="moniter-screen">
  <object id="431" gid="240" x="173.256" y="673.913" width="30.6364" height="15.8182"/>
  <object id="432" gid="239" x="111.506" y="803.368" width="30.5909" height="15.2727"/>
  <object id="433" gid="2147483886" x="174.083" y="293.462" width="31" height="16" rotation="-2"/>
  <object id="434" gid="238" x="396.992" y="548.765" width="31" height="16" rotation="2"/>
  <object id="435" gid="2147483886" x="107.083" y="290.295" width="31" height="16" rotation="2"/>
  <object id="436" gid="240" x="890.13" y="416.234" width="30.6364" height="15.8182"/>
  <object id="437" gid="238" x="949.083" y="416.295" width="31" height="16" rotation="2"/>
  <object id="438" gid="240" x="394.13" y="293.568" width="30.6364" height="15.8182"/>
  <object id="439" gid="238" x="169.537" y="545.959" width="31" height="16" rotation="2"/>
  <object id="440" gid="241" x="659.765" y="297.297" width="30.6157" height="16.0928" rotation="358.591"/>
  <object id="441" gid="239" x="394.668" y="807.076" width="30.5795" height="15.6553"/>
  <object id="442" gid="239" x="659.523" y="807.29" width="30.5795" height="15.6553"/>
  <object id="443" gid="239" x="715.636" y="804.413" width="30.5795" height="15.6553"/>
  <object id="446" gid="241" x="951.15" y="672.537" width="30.6157" height="16.0928" rotation="358.591"/>
 </objectgroup>
 <objectgroup id="17" name="collision">
  <object id="365" x="309" y="807" width="138.667" height="57.3333"/>
  <object id="366" x="307.666" y="677.667" width="138.667" height="57.3333"/>
  <object id="367" x="305" y="549.667" width="138.667" height="57.3333"/>
  <object id="368" x="309.666" y="421" width="138.667" height="57.3333"/>
  <object id="369" x="307.666" y="295.667" width="138.667" height="57.3333"/>
  <object id="370" x="87.6668" y="802.917" width="138.667" height="57.3333"/>
  <object id="371" x="86.5828" y="674.709" width="138.667" height="57.3333"/>
  <object id="372" x="83.9168" y="546.709" width="138.667" height="57.3333"/>
  <object id="373" x="88.5828" y="418.042" width="138.667" height="57.3333"/>
  <object id="374" x="86.5828" y="292.709" width="138.667" height="57.3333"/>
  <object id="375" x="636.083" y="807.75" width="138.667" height="57.3333"/>
  <object id="376" x="634.75" y="678.417" width="138.667" height="57.3333"/>
  <object id="377" x="632.083" y="550.417" width="138.667" height="57.3333"/>
  <object id="378" x="636.75" y="421.75" width="138.667" height="57.3333"/>
  <object id="379" x="634.75" y="296.417" width="138.667" height="57.3333"/>
  <object id="380" x="869.666" y="803" width="138.667" height="57.3333"/>
  <object id="381" x="868.333" y="673.667" width="138.667" height="57.3333"/>
  <object id="382" x="865.666" y="545.667" width="138.667" height="57.3333"/>
  <object id="383" x="870.333" y="417" width="138.667" height="57.3333"/>
  <object id="384" x="868.333" y="291.667" width="138.667" height="57.3333"/>
  <object id="385" x="1056" y="-1.33333" width="32" height="928"/>
  <object id="387" x="0" y="896" width="1089.33" height="30.6667"/>
  <object id="390" x="-1.33333" y="-1.33333" width="32" height="926.667"/>
  <object id="393" x="0" y="0" width="1088" height="134.667"/>
  <object id="394" x="672" y="150.667" width="261.333" height="28"/>
  <object id="397" x="996" y="134.667" width="57.3333" height="38.6667"/>
  <object id="491" x="383.75" y="156.25" width="95.5" height="64.25"/>
  <object id="492" x="-47" y="-37" width="74" height="887"/>
  <object id="493" x="1068" y="-134" width="440" height="1122"/>
  <object id="494" x="-114" y="914" width="1506" height="68"/>
  <object id="495" x="-74" y="-44" width="1250" height="78"/>
  <object id="497" x="637" y="127" width="418" height="64"/>
  <object id="498" x="110.667" y="125.333" width="416" height="65.3333"/>
  <object id="499" x="161.333" y="162.667"/>
  <object id="500" x="30.6667" y="124" width="446.667" height="66.6667"/>
  <object id="501" x="674.667" y="153.333" width="254.667" height="69.3333"/>
  <object id="502" x="992" y="162.667" width="64" height="60"/>
  <object id="503" x="481.333" y="122.667" width="192" height="69.3333"/>
  <object id="507" x="954.667" y="319.333" width="32" height="43.3333"/>
  <object id="508" x="890" y="319" width="32" height="43.3333"/>
 </objectgroup>
 <objectgroup id="18" name="Portals">
  <object id="400" name="GotoBoss" x="505" y="193" width="144" height="66">
   <properties>
    <property name="spawnX" type="float" value="368"/>
    <property name="spawnY" type="float" value="176"/>
    <property name="target" value="boss_room.tmx"/>
   </properties>
  </object>
 </objectgroup>
 <objectgroup id="23" name="Spawn">
  <object id="496" x="507.333" y="801.333" width="102" height="90"/>
 </objectgroup>
 <objectgroup id="16" name="sitting_human">
  <object id="356" gid="231" x="716.5" y="637.5" width="33" height="66"/>
  <object id="419" gid="231" x="956.5" y="488" width="33" height="66"/>
  <object id="420" gid="231" x="956.5" y="746" width="33" height="66"/>
  <object id="421" gid="231" x="659.5" y="881" width="33" height="66"/>
  <object id="422" gid="231" x="723.5" y="879.5" width="33" height="66"/>
  <object id="423" gid="231" x="392.5" y="622" width="33" height="66"/>
  <object id="424" gid="231" x="176.5" y="491.5" width="33" height="66"/>
  <object id="425" gid="231" x="174.5" y="743.5" width="33" height="66"/>
  <object id="426" gid="231" x="110" y="871" width="33" height="66"/>
  <object id="427" gid="231" x="396.833" y="366.667" width="33" height="66"/>
  <object id="428" gid="231" x="176.833" y="364.667" width="33" height="66"/>
  <object id="429" gid="231" x="110.5" y="362.333" width="33" height="66"/>
  <object id="430" gid="231" x="890.5" y="484" width="33" height="66"/>
  <object id="444" gid="232" x="107.958" y="625.625" width="39" height="66"/>
  <object id="445" gid="231" x="171.375" y="620.708" width="33" height="66"/>
 </objectgroup>
 <objectgroup id="15" name="chair">
  <object id="263" gid="215" x="-238.396" y="384.125" width="33" height="42"/>
  <object id="264" gid="215" x="-173.938" y="384.5" width="33" height="42"/>
  <object id="265" gid="215" x="330.271" y="366.813" width="33" height="42"/>
  <object id="266" gid="215" x="396.229" y="376.188" width="33" height="42"/>
  <object id="267" gid="215" x="331.604" y="492.146" width="33" height="42"/>
  <object id="268" gid="215" x="396.062" y="492.521" width="33" height="42"/>
  <object id="269" gid="215" x="392.229" y="629.521" width="33" height="42"/>
  <object id="270" gid="215" x="330.271" y="748.146" width="33" height="42"/>
  <object id="271" gid="215" x="394.729" y="748.521" width="33" height="42"/>
  <object id="272" gid="215" x="330.271" y="877.479" width="33" height="42"/>
  <object id="273" gid="215" x="394.729" y="877.854" width="33" height="42"/>
  <object id="274" gid="215" x="110.438" y="371.813" width="33" height="42"/>
  <object id="275" gid="215" x="174.896" y="372.188" width="33" height="42"/>
  <object id="276" gid="215" x="110.271" y="488.146" width="33" height="42"/>
  <object id="277" gid="215" x="176.229" y="497.521" width="33" height="42"/>
  <object id="279" gid="215" x="170.896" y="625.521" width="33" height="42"/>
  <object id="280" gid="215" x="108.938" y="744.146" width="33" height="42"/>
  <object id="281" gid="215" x="174.896" y="753.521" width="33" height="42"/>
  <object id="282" gid="215" x="110.438" y="882.479" width="33" height="42"/>
  <object id="283" gid="215" x="173.396" y="873.854" width="33" height="42"/>
  <object id="284" gid="215" x="656.938" y="366.813" width="33" height="42"/>
  <object id="285" gid="215" x="721.395" y="367.188" width="33" height="42"/>
  <object id="286" gid="215" x="658.27" y="492.146" width="33" height="42"/>
  <object id="287" gid="215" x="722.729" y="492.521" width="33" height="42"/>
  <object id="288" gid="215" x="652.938" y="620.146" width="33" height="42"/>
  <object id="289" gid="215" x="715.562" y="643.521" width="33" height="42"/>
  <object id="290" gid="215" x="656.938" y="748.146" width="33" height="42"/>
  <object id="291" gid="215" x="721.395" y="748.521" width="33" height="42"/>
  <object id="292" gid="215" x="658.438" y="886.479" width="33" height="42"/>
  <object id="293" gid="215" x="722.895" y="886.854" width="33" height="42"/>
  <object id="294" gid="215" x="888.938" y="362.813" width="33" height="42"/>
  <object id="295" gid="215" x="953.395" y="363.188" width="33" height="42"/>
  <object id="296" gid="215" x="891.77" y="497.146" width="33" height="42"/>
  <object id="297" gid="215" x="956.229" y="497.521" width="33" height="42"/>
  <object id="298" gid="215" x="884.938" y="616.146" width="33" height="42"/>
  <object id="299" gid="215" x="949.395" y="616.521" width="33" height="42"/>
  <object id="300" gid="215" x="888.938" y="744.146" width="33" height="42"/>
  <object id="301" gid="215" x="954.895" y="753.521" width="33" height="42"/>
  <object id="302" gid="215" x="888.938" y="873.479" width="33" height="42"/>
  <object id="303" gid="215" x="953.395" y="873.854" width="33" height="42"/>
  <object id="326" gid="216" x="105.834" y="625.667" width="36" height="42"/>
  <object id="504" x="954" y="320.667" width="32.6667" height="42"/>
  <object id="513" x="957.667" y="453.833" width="32" height="43.3333"/>
  <object id="514" x="893" y="453.5" width="32" height="43.3333"/>
  <object id="515" x="950.334" y="573.167" width="32" height="43.3333"/>
  <object id="516" x="885.667" y="572.834" width="32" height="43.3333"/>
  <object id="517" x="956.334" y="710.5" width="32" height="43.3333"/>
  <object id="518" x="891" y="700.167" width="32" height="43.3333"/>
  <object id="519" x="955" y="830.5" width="32" height="43.3333"/>
  <object id="520" x="890.333" y="830.167" width="32" height="43.3333"/>
  <object id="521" x="723.667" y="842.5" width="32" height="43.3333"/>
  <object id="522" x="659" y="842.167" width="32" height="43.3333"/>
  <object id="523" x="723" y="705.167" width="32" height="43.3333"/>
  <object id="524" x="658.333" y="704.834" width="32" height="43.3333"/>
  <object id="525" x="715" y="600.5" width="32" height="43.3333"/>
  <object id="526" x="653.667" y="577.5" width="32" height="43.3333"/>
  <object id="527" x="724.334" y="449.167" width="32" height="43.3333"/>
  <object id="528" x="659.667" y="448.834" width="32" height="43.3333"/>
  <object id="529" x="721.667" y="327.167" width="32" height="43.3333"/>
  <object id="530" x="657" y="326.834" width="32" height="43.3333"/>
  <object id="531" x="397" y="332.5" width="32" height="43.3333"/>
  <object id="532" x="332.333" y="323.5" width="32" height="43.3333"/>
  <object id="533" x="397.667" y="449.833" width="32" height="43.3333"/>
  <object id="534" x="333" y="449.5" width="32" height="43.3333"/>
  <object id="535" x="392.334" y="587.167" width="32" height="43.3333"/>
  <object id="536" x="333.667" y="571.5" width="32" height="43.3333"/>
  <object id="537" x="395.667" y="706.5" width="32" height="43.3333"/>
  <object id="538" x="331" y="706.167" width="32" height="43.3333"/>
  <object id="539" x="397" y="834.5" width="32" height="43.3333"/>
  <object id="540" x="332.333" y="834.167" width="32" height="43.3333"/>
  <object id="541" x="171.667" y="831.833" width="32" height="43.3333"/>
  <object id="542" x="111" y="838.834" width="32" height="43.3333"/>
  <object id="543" x="175.667" y="711.167" width="32" height="43.3333"/>
  <object id="544" x="109" y="701.5" width="32" height="43.3333"/>
  <object id="545" x="171" y="583.167" width="32" height="43.3333"/>
  <object id="546" x="108.333" y="582.834" width="32" height="43.3333"/>
  <object id="547" x="176.334" y="454.5" width="32" height="43.3333"/>
  <object id="548" x="111" y="444.834" width="32" height="43.3333"/>
  <object id="549" x="176.334" y="328.5" width="32" height="43.3333"/>
  <object id="550" x="111.666" y="328.167" width="32" height="43.3333"/>
 </objectgroup>
 <layer id="11" name="wall" width="34" height="29">
  <data encoding="csv">
0,0,0,0,0,0,0,0,0,0,0,0,0,0,0,0,0,0,0,0,0,0,0,0,0,0,0,0,0,0,0,0,0,0,
0,0,0,0,0,0,0,0,0,0,0,0,0,0,0,0,0,0,0,0,0,0,0,0,0,0,0,0,0,0,0,0,0,0,
0,0,0,0,0,0,0,0,0,0,0,0,0,0,0,0,0,0,0,0,0,0,0,0,0,0,0,0,0,0,0,0,0,0,
0,0,0,0,0,0,0,0,0,0,0,0,0,0,0,0,0,0,0,0,0,0,0,0,0,0,0,0,0,0,0,0,0,0,
0,0,0,0,0,0,0,0,0,0,0,0,0,0,0,0,0,0,0,0,0,0,0,0,0,0,0,0,0,0,0,0,0,0,
222,224,223,222,224,223,222,224,223,222,224,223,222,224,223,222,224,223,222,224,223,222,224,223,222,224,223,222,224,223,222,224,223,222,
0,0,0,0,0,0,0,0,0,0,0,0,0,0,0,0,0,0,0,0,0,0,0,0,0,0,0,0,0,0,0,0,0,228,
0,0,0,0,0,0,0,0,0,0,0,0,0,0,0,0,0,0,0,0,0,0,0,0,0,0,0,0,0,0,0,0,0,228,
0,0,0,0,0,0,0,0,0,0,0,0,0,0,0,0,0,0,0,0,0,0,0,0,0,0,0,0,0,0,0,0,0,228,
0,0,0,0,0,0,0,0,0,0,0,0,0,0,0,0,0,0,0,0,0,0,0,0,0,0,0,0,0,0,0,0,0,228,
0,0,0,0,0,0,0,0,0,0,0,0,0,0,0,0,0,0,0,0,0,0,0,0,0,0,0,0,0,0,0,0,0,228,
0,0,0,0,0,0,0,0,0,0,0,0,0,0,0,0,0,0,0,0,0,0,0,0,0,0,0,0,0,0,0,0,0,228,
0,0,0,0,0,0,0,0,0,0,0,0,0,0,0,0,0,0,0,0,0,0,0,0,0,0,0,0,0,0,0,0,0,228,
0,0,0,0,0,0,0,0,0,0,0,0,0,0,0,0,0,0,0,0,0,0,0,0,0,0,0,0,0,0,0,0,0,228,
0,0,0,0,0,0,0,0,0,0,0,0,0,0,0,0,0,0,0,0,0,0,0,0,0,0,0,0,0,0,0,0,0,228,
0,0,0,0,0,0,0,0,0,0,0,0,0,0,0,0,0,0,0,0,0,0,0,0,0,0,0,0,0,0,0,0,0,228,
0,0,0,0,0,0,0,0,0,0,0,0,0,0,0,0,0,0,0,0,0,0,0,0,0,0,0,0,0,0,0,0,0,228,
0,0,0,0,0,0,0,0,0,0,0,0,0,0,0,0,0,0,0,0,0,0,0,0,0,0,0,0,0,0,0,0,0,228,
0,0,0,0,0,0,0,0,0,0,0,0,0,0,0,0,0,0,0,0,0,0,0,0,0,0,0,0,0,0,0,0,0,228,
0,0,0,0,0,0,0,0,0,0,0,0,0,0,0,0,0,0,0,0,0,0,0,0,0,0,0,0,0,0,0,0,0,228,
0,0,0,0,0,0,0,0,0,0,0,0,0,0,0,0,0,0,0,0,0,0,0,0,0,0,0,0,0,0,0,0,0,228,
0,0,0,0,0,0,0,0,0,0,0,0,0,0,0,0,0,0,0,0,0,0,0,0,0,0,0,0,0,0,0,0,0,228,
0,0,0,0,0,0,0,0,0,0,0,0,0,0,0,0,0,0,0,0,0,0,0,0,0,0,0,0,0,0,0,0,0,228,
0,0,0,0,0,0,0,0,0,0,0,0,0,0,0,0,0,0,0,0,0,0,0,0,0,0,0,0,0,0,0,0,0,228,
0,0,0,0,0,0,0,0,0,0,0,0,0,0,0,0,0,0,0,0,0,0,0,0,0,0,0,0,0,0,0,0,0,228,
0,0,0,0,0,0,0,0,0,0,0,0,0,0,0,0,0,0,0,0,0,0,0,0,0,0,0,0,0,0,0,0,0,228,
0,0,0,0,0,0,0,0,0,0,0,0,0,0,0,0,0,0,0,0,0,0,0,0,0,0,0,0,0,0,0,0,0,228,
0,0,0,0,0,0,0,0,0,0,0,0,0,0,0,0,0,0,0,0,0,0,0,0,0,0,0,0,0,0,0,0,0,228,
225,227,227,227,227,227,227,227,227,227,227,227,227,227,227,227,227,227,227,227,227,227,227,227,227,227,227,227,227,227,227,227,227,226
</data>
 </layer>
 <layer id="12" name="wall2" width="34" height="29">
  <data encoding="csv">
242,1610612964,1610612964,1610612964,1610612964,1610612964,1610612964,1610612964,1610612964,1610612964,1610612964,1610612964,1610612964,1610612964,1610612964,1610612964,1610612964,1610612964,1610612964,1610612964,1610612964,1610612964,1610612964,1610612964,1610612964,1610612964,1610612964,1610612964,1610612964,1610612964,1610612964,1610612964,1610612964,2147483890,
0,0,0,0,0,0,0,0,0,0,0,0,0,0,0,0,0,0,0,0,0,0,0,0,0,0,0,0,0,0,0,0,0,0,
0,0,0,0,0,0,0,0,0,0,0,0,0,0,0,0,0,0,0,0,0,0,0,0,0,0,0,0,0,0,0,0,0,0,
0,0,0,0,0,0,0,0,0,0,0,0,0,0,0,0,0,0,0,0,0,0,0,0,0,0,0,0,0,0,0,0,0,0,
0,0,0,0,0,0,0,0,0,198,0,0,0,0,0,0,0,0,0,0,0,0,198,0,0,0,0,0,198,0,0,0,0,0,
228,0,0,0,0,0,0,0,0,0,0,0,0,0,0,204,0,0,0,0,0,0,0,0,0,0,0,0,0,0,0,0,0,3221225700,
228,0,0,0,0,0,0,0,0,0,0,0,0,0,0,0,0,0,0,0,0,0,0,0,0,0,0,0,0,0,0,0,0,3221225700,
228,0,0,0,0,0,0,0,0,0,0,0,0,0,0,0,0,0,0,0,0,0,0,0,0,0,0,0,0,0,0,0,0,3221225700,
228,0,0,0,0,0,0,0,0,0,0,0,0,0,0,0,0,0,0,0,0,0,0,0,0,0,0,0,0,0,0,0,0,3221225700,
228,0,0,0,0,0,0,0,0,0,0,0,0,0,0,0,0,0,0,0,0,0,0,0,0,0,0,0,0,0,0,0,0,3221225700,
228,0,0,0,0,0,0,0,0,0,0,0,0,0,0,0,0,0,0,0,0,0,0,0,0,0,0,0,0,0,0,0,0,3221225700,
228,0,0,0,0,0,0,0,0,0,0,0,0,0,0,0,0,0,0,0,0,0,0,0,0,0,0,0,0,0,0,0,0,3221225700,
228,0,0,0,0,0,0,0,0,0,0,0,0,0,0,0,0,0,0,0,0,0,0,0,0,0,0,0,0,0,0,0,0,3221225700,
228,0,0,0,0,0,0,0,0,0,0,0,0,0,0,0,0,0,0,0,0,0,0,0,0,0,0,0,0,0,0,0,0,3221225700,
228,0,0,0,0,0,0,0,0,0,0,0,0,0,0,0,0,0,0,0,0,0,0,0,0,0,0,0,0,0,0,0,0,3221225700,
228,0,0,0,0,0,0,0,0,0,0,0,0,0,0,0,0,0,0,0,0,0,0,0,0,0,0,0,0,0,0,0,0,3221225700,
228,0,0,0,0,0,0,0,0,0,0,0,0,0,0,0,0,0,0,0,0,0,0,0,0,0,0,0,0,0,0,0,0,3221225700,
228,0,0,0,0,0,0,0,0,0,0,0,0,0,0,0,0,0,0,0,0,0,0,0,0,0,0,0,0,0,0,0,0,3221225700,
228,0,0,0,0,0,0,0,0,0,0,0,0,0,0,0,0,0,0,0,0,0,0,0,0,0,0,0,0,0,0,0,0,3221225700,
228,0,0,0,0,0,0,0,0,0,0,0,0,0,0,0,0,0,0,0,0,0,0,0,0,0,0,0,0,0,0,0,0,3221225700,
228,0,0,0,0,0,0,0,0,0,0,0,0,0,0,0,0,0,0,0,0,0,0,0,0,0,0,0,0,0,0,0,0,3221225700,
228,0,0,0,0,0,0,0,0,0,0,0,0,0,0,0,0,0,0,0,0,0,0,0,0,0,0,0,0,0,0,0,0,3221225700,
228,0,0,0,0,0,0,0,0,0,0,0,0,0,0,0,0,0,0,0,0,0,0,0,0,0,0,0,0,0,0,0,0,3221225700,
228,0,0,0,0,0,0,0,0,0,0,0,0,0,0,0,0,0,0,0,0,0,0,0,0,0,0,0,0,0,0,0,0,3221225700,
228,0,0,0,0,0,0,0,0,0,0,0,0,0,0,0,0,0,0,0,0,0,0,0,0,0,0,0,0,0,0,0,0,3221225700,
228,0,0,0,0,0,0,0,0,0,0,0,0,0,0,0,0,0,0,0,0,0,0,0,0,0,0,0,0,0,0,0,0,3221225700,
228,0,0,0,0,0,0,0,0,0,0,0,0,0,0,0,0,0,0,0,0,0,0,0,0,0,0,0,0,0,0,0,0,3221225700,
228,0,0,0,0,0,0,0,0,0,0,0,0,0,0,0,0,0,0,0,0,0,0,0,0,0,0,0,0,0,0,0,0,3221225700,
0,0,0,0,0,0,0,0,0,0,0,0,0,0,0,3758096579,3758096579,3758096579,3758096579,3758096579,0,0,0,0,0,0,0,0,0,0,0,0,0,0
</data>
 </layer>
 <layer id="6" name="entity" width="34" height="29">
  <data encoding="csv">
0,0,0,0,0,0,0,0,0,0,0,0,0,0,0,0,0,0,0,0,0,0,0,0,0,0,0,0,0,0,0,0,0,0,
2147483876,0,190,0,0,0,0,0,0,190,0,0,0,0,0,0,0,0,0,0,190,0,0,0,0,0,0,0,190,0,0,0,0,228,
2147483876,0,0,0,0,0,0,0,0,0,0,0,0,0,0,0,0,0,0,0,0,0,0,0,0,0,0,0,0,0,0,0,0,228,
2147483876,0,0,0,0,0,0,0,0,0,0,0,0,0,0,0,0,0,0,0,0,0,0,0,0,0,0,0,0,0,0,0,0,228,
2147483876,0,0,198,0,0,0,0,0,0,0,0,0,0,0,0,0,0,0,0,0,0,0,0,0,0,0,0,0,0,0,197,197,228,
2147483876,0,0,0,0,0,0,0,0,0,0,0,0,0,0,0,0,0,0,0,0,0,0,0,0,0,0,0,0,0,0,0,0,228,
2147483876,0,0,0,0,0,0,0,0,0,0,0,211,0,0,0,0,0,0,0,0,203,0,192,192,192,192,207,0,0,0,197,197,228,
2147483876,0,0,0,0,0,0,0,0,0,0,0,0,0,0,0,202,0,0,0,0,0,0,0,0,0,0,0,0,0,0,0,229,228,
2147483876,0,0,0,0,0,0,0,0,0,0,0,0,0,0,0,0,0,0,0,0,0,0,0,0,0,0,0,0,0,0,0,0,228,
2147483876,0,0,0,0,0,0,0,0,0,0,0,0,0,0,0,0,0,0,0,0,0,0,0,0,0,0,0,0,0,0,0,0,228,
2147483876,0,0,0,0,0,0,0,0,0,0,0,0,0,0,0,0,0,0,0,0,0,0,0,0,0,0,0,0,0,0,0,0,228,
2147483876,0,0,0,0,0,0,0,0,0,0,0,0,0,0,0,0,0,0,0,0,0,0,0,0,0,0,0,0,0,0,0,0,228,
2147483876,0,0,0,0,0,0,0,0,0,0,0,0,0,0,0,0,0,0,0,0,0,0,0,0,0,0,0,0,0,0,0,0,228,
2147483876,0,0,0,0,0,0,0,0,0,0,0,0,0,0,0,0,0,0,0,0,0,0,0,0,0,0,0,0,0,0,0,0,228,
2147483876,0,0,0,0,0,0,0,0,0,0,0,0,0,0,0,0,0,0,0,0,0,0,0,0,0,0,0,0,0,0,0,0,228,
2147483876,0,0,0,0,0,0,0,0,0,0,0,0,0,0,0,0,0,0,0,0,0,0,0,0,0,0,0,0,0,0,0,0,228,
2147483876,0,0,0,0,0,0,0,0,0,0,0,0,0,0,0,0,0,0,0,0,0,0,0,0,0,0,0,0,0,0,0,0,228,
2147483876,0,0,0,0,0,0,0,0,0,0,0,0,0,0,0,0,0,0,0,0,0,0,0,0,0,0,0,0,0,0,0,0,228,
2147483876,0,0,0,0,0,0,0,0,0,0,0,0,0,0,0,0,0,0,0,0,0,0,0,0,0,0,0,0,0,0,0,0,228,
2147483876,0,0,0,0,0,0,0,0,0,0,0,0,0,0,0,0,0,0,0,0,0,0,0,0,0,0,0,0,0,0,0,0,228,
2147483876,0,0,0,0,0,0,0,0,0,0,0,0,0,0,0,0,0,0,0,0,0,0,0,0,0,0,0,0,0,0,0,0,228,
2147483876,0,0,0,0,0,0,0,0,0,0,0,0,0,0,0,0,0,0,0,0,0,0,0,0,0,0,0,0,0,0,0,0,228,
2147483876,0,0,0,0,0,0,0,0,0,0,0,0,0,0,0,0,0,0,0,0,0,0,0,0,0,0,0,0,0,0,0,0,228,
2147483876,0,0,0,0,0,0,0,0,0,0,0,0,0,0,0,0,0,0,0,0,0,0,0,0,0,0,0,0,0,0,0,0,228,
2147483876,0,0,0,0,0,0,0,0,0,0,0,0,0,0,0,0,0,0,0,0,0,0,0,0,0,0,0,0,0,0,0,0,228,
2147483876,0,0,0,0,0,0,0,0,0,0,0,0,0,0,0,0,0,0,0,0,0,0,0,0,0,0,0,0,0,0,0,0,228,
2147483876,0,0,0,0,0,0,0,0,0,0,0,0,0,0,0,0,0,0,0,0,0,0,0,0,0,0,0,0,0,0,0,0,228,
2147483876,0,0,0,0,0,0,0,0,0,0,0,0,0,0,0,0,0,0,0,0,0,0,0,0,0,0,0,0,0,0,0,0,228,
0,0,0,0,0,0,0,0,0,0,0,0,0,0,0,0,0,0,0,0,0,0,0,0,0,0,0,0,0,0,0,0,0,0
</data>
 </layer>
 <objectgroup id="19" name="cua">
  <object id="403" gid="190" x="480" y="916" width="160" height="20"/>
 </objectgroup>
</map>
