<?xml version="1.0" encoding="UTF-8"?>
<map version="1.10" tiledversion="1.12.1" orientation="orthogonal" renderorder="right-down" width="80" height="80" tilewidth="32" tileheight="32" infinite="0" nextlayerid="19" nextobjectid="331">
 <tileset firstgid="1" source="../tsx/outside.tsx"/>
 <tileset firstgid="139" source="../tsx/hoaco.tsx"/>
 <tileset firstgid="167" source="../tsx/brick.tsx"/>
 <tileset firstgid="231" source="../tsx/nature.tsx"/>
 <layer id="1" name="Background" width="80" height="80">
  <data encoding="csv">
536871037,536871037,124,124,124,124,124,124,124,124,124,124,124,124,124,124,124,124,124,124,124,124,124,124,124,124,124,124,124,124,124,124,124,124,124,124,124,124,124,124,124,124,124,124,124,124,124,124,124,124,124,124,124,124,124,124,124,124,124,124,124,124,124,124,124,124,124,124,124,124,124,124,124,124,124,124,124,124,536871037,536871037,
536871037,536871037,1073741948,1073741948,1073741948,1073741948,1073741948,1073741948,1073741948,1073741948,1073741948,1073741948,1073741948,1073741948,1073741948,1073741948,1073741948,1073741948,1073741948,1073741948,1073741948,1073741948,1073741948,1073741948,1073741948,1073741948,1073741948,1073741948,1073741948,1073741948,1073741948,1073741948,1073741948,1073741948,1073741948,1073741948,1073741948,1073741948,1073741948,1073741948,1073741948,1073741948,1073741948,1073741948,1073741948,1073741948,1073741948,1073741948,1073741948,1073741948,1073741948,1073741948,1073741948,1073741948,1073741948,1073741948,1073741948,1073741948,1073741948,1073741948,1073741948,1073741948,1073741948,1073741948,1073741948,1073741948,1073741948,1073741948,1073741948,1073741948,1073741948,1073741948,1073741948,1073741948,1073741948,1073741948,1073741948,1073741948,536871037,536871037,
536871036,2684354684,1610612874,1610612863,1610612863,1610612863,1610612863,1610612863,1610612863,1610612863,1610612863,1610612863,1610612863,1610612863,1610612863,1610612863,1610612863,1610612863,1610612863,1610612863,1610612863,1610612863,1610612863,1610612863,1610612863,1610612863,1610612863,1610612863,1610612863,1610612863,1610612863,1610612863,1610612863,1610612863,1610612863,1610612863,1610612863,1610612863,1610612863,1610612863,1610612863,1610612863,1610612863,1610612863,1610612863,1610612863,1610612863,1610612863,1610612863,1610612863,1610612863,1610612863,1610612863,1610612863,1610612863,1610612863,1610612863,1610612863,1610612863,1610612863,1610612863,1610612863,1610612863,1610612863,1610612863,1610612863,1610612863,1610612863,1610612863,1610612863,1610612863,1610612863,1610612863,1610612863,1610612863,1610612863,1610612863,138,536871036,2684354684,
536871036,2684354684,2147483775,178,183,177,170,189,183,188,173,181,197,179,186,182,191,182,180,179,191,184,198,172,198,187,198,189,172,182,189,182,181,183,185,195,197,172,182,194,193,190,178,177,189,187,171,189,173,181,197,183,195,167,189,183,169,171,173,179,188,182,198,186,171,176,190,173,169,179,169,179,170,185,172,180,181,127,536871036,2684354684,
536871036,2684354684,2147483775,187,179,185,179,183,171,175,188,173,188,173,176,183,185,167,181,187,171,170,187,191,196,185,187,181,194,195,197,167,180,189,173,187,172,195,178,194,170,189,170,173,180,184,194,169,180,193,190,184,173,193,193,192,186,190,171,198,180,167,193,180,178,167,197,172,170,197,181,197,170,173,169,167,181,127,536871036,2684354684,
536871036,2684354684,2147483775,180,167,198,184,187,181,170,184,181,188,176,196,186,188,169,184,196,179,190,194,168,182,195,169,180,195,182,188,167,197,198,176,178,192,167,167,167,191,177,186,189,167,197,184,173,180,198,191,177,180,176,181,189,196,192,167,196,184,187,178,193,174,176,171,198,186,183,192,182,176,169,172,187,167,127,536871036,2684354684,
536871036,2684354684,2147483775,193,196,195,182,177,187,192,195,192,175,178,184,183,176,178,182,169,173,188,184,195,184,188,193,187,193,184,190,170,188,181,171,169,185,173,171,169,193,197,196,168,172,167,177,177,171,187,172,184,194,190,189,186,193,167,197,169,186,167,194,167,194,170,187,172,176,198,193,168,168,177,187,198,192,127,536871036,2684354684,
536871036,2684354684,2147483775,190,178,181,171,169,197,194,195,186,198,178,195,183,198,186,192,168,178,191,178,198,187,185,191,181,183,180,184,169,169,175,182,178,193,167,192,187,167,198,198,176,169,181,186,184,167,169,190,180,193,186,172,171,196,184,183,187,182,179,189,193,193,172,168,180,195,167,169,197,184,186,197,183,183,127,536871036,2684354684,
536871036,2684354684,2147483775,174,184,196,189,180,192,178,191,174,171,188,191,181,187,195,192,175,189,180,187,184,168,168,181,173,174,191,182,182,197,187,186,196,173,170,183,183,167,176,171,197,169,197,171,181,169,169,188,190,183,173,189,176,188,172,198,187,179,187,183,177,186,192,198,187,180,191,173,176,186,193,182,180,169,127,536871036,2684354684,
536871036,2684354684,2147483775,167,182,178,174,174,196,169,167,177,191,180,186,179,194,192,168,173,181,170,171,186,170,179,173,167,176,182,167,179,176,189,195,186,192,173,181,193,188,197,192,175,180,192,167,193,171,175,188,181,188,183,190,169,194,198,183,169,190,188,187,167,167,178,168,173,197,167,173,169,198,188,183,192,170,127,536871036,2684354684,
536871036,2684354684,2147483775,170,198,182,169,196,192,167,170,170,180,184,168,184,182,198,194,169,174,167,196,172,172,170,179,198,186,185,198,191,186,194,189,171,198,169,190,180,182,186,192,173,184,169,198,190,180,177,180,187,188,167,167,177,183,186,174,183,186,167,189,183,169,191,178,176,188,167,184,194,182,194,197,182,197,127,536871036,2684354684,
536871036,2684354684,2147483775,181,170,192,167,188,180,176,178,174,193,180,198,188,193,196,168,198,183,173,179,186,191,186,187,187,194,172,197,172,168,173,172,173,175,170,167,188,167,190,176,179,169,190,167,173,188,179,181,179,179,189,185,171,197,186,197,180,197,180,169,172,190,173,167,183,187,198,172,176,177,193,169,182,187,127,536871036,2684354684,
536871036,2684354684,2147483775,168,179,194,197,172,195,167,184,170,190,183,179,177,167,196,175,172,174,185,184,193,181,190,192,174,169,195,187,184,177,170,187,181,169,174,195,171,190,181,181,180,195,197,168,188,167,197,189,173,195,167,172,187,172,194,173,184,184,169,181,186,181,192,177,187,193,193,194,171,197,174,196,179,192,127,536871036,2684354684,
536871036,2684354684,2147483775,179,198,190,186,168,168,195,167,195,198,189,168,180,197,187,177,196,186,179,168,187,171,193,190,181,168,194,195,179,185,171,177,181,178,172,178,189,186,183,169,189,167,172,167,167,188,167,181,180,182,194,190,183,182,183,169,198,177,178,180,173,167,196,182,184,180,184,197,187,183,172,194,197,188,127,536871036,2684354684,
536871036,2684354684,2147483775,168,174,176,183,187,183,169,187,197,191,172,169,177,188,177,185,179,192,189,193,181,196,175,178,171,171,176,176,198,167,180,179,182,186,193,193,183,169,169,183,189,189,178,175,184,194,183,172,172,171,197,173,171,179,190,181,169,172,169,194,190,167,167,167,193,172,193,172,172,197,197,171,193,186,127,536871036,2684354684,
536871036,2684354684,2147483775,197,174,174,182,185,186,198,168,171,180,188,180,175,196,167,185,193,186,191,196,175,192,197,169,196,191,185,169,172,175,198,167,183,172,187,176,180,167,187,197,173,189,183,179,190,172,187,185,183,198,177,193,180,174,176,169,167,177,190,197,184,172,171,192,171,193,187,167,174,196,193,179,168,189,127,536871036,2684354684,
536871036,2684354684,2147483775,190,196,192,198,175,195,182,178,190,183,185,180,192,171,190,195,197,186,186,190,171,184,182,191,194,172,195,198,190,183,177,189,196,194,169,181,171,180,174,188,198,186,176,196,176,169,197,169,170,167,180,197,186,188,174,196,186,181,169,183,175,173,167,190,173,186,187,183,180,172,171,180,188,186,127,536871036,2684354684,
536871036,2684354684,2147483775,173,198,168,183,173,190,190,188,183,182,173,198,197,170,168,176,183,178,175,193,172,174,186,181,184,198,189,187,187,188,170,190,194,191,182,170,196,183,178,190,173,176,170,184,182,172,190,194,198,187,177,186,183,167,179,179,184,169,197,197,191,167,169,169,197,168,172,169,191,172,197,167,172,176,127,536871036,2684354684,
536871036,2684354684,2147483775,189,175,197,193,173,195,190,184,192,182,172,167,180,168,180,171,179,192,179,183,189,179,170,185,189,190,190,183,173,176,169,181,177,180,186,181,176,169,168,186,167,191,196,189,175,183,180,190,183,183,169,186,187,187,171,182,192,189,193,179,181,186,182,169,171,184,190,189,188,189,189,189,187,169,127,536871036,2684354684,
536871036,2684354684,2147483775,177,188,183,189,181,198,183,192,197,194,188,194,181,182,196,168,193,174,191,196,180,194,171,191,180,192,180,167,175,197,169,177,167,193,178,173,167,176,198,169,196,171,197,193,169,192,187,175,186,181,172,190,180,186,169,183,194,190,188,191,186,171,167,172,167,188,176,197,176,186,190,181,172,182,127,536871036,2684354684,
536871036,2684354684,2147483775,170,173,177,174,178,198,196,173,167,192,183,171,188,194,190,187,183,168,186,186,184,184,179,186,167,168,179,196,183,173,169,198,181,182,167,167,172,183,196,185,186,168,190,189,186,171,187,186,181,191,187,167,171,197,186,189,179,196,180,183,167,167,189,193,180,190,173,180,179,172,190,183,186,184,127,536871036,2684354684,
536871036,2684354684,2147483775,176,193,191,197,182,187,180,172,192,169,173,197,172,176,190,179,169,184,186,167,169,197,180,192,193,182,196,190,167,197,169,197,178,179,192,197,167,197,195,181,191,183,172,171,186,179,188,194,195,180,192,194,185,171,169,176,186,171,172,171,186,184,197,176,181,179,182,173,182,197,170,186,176,197,127,536871036,2684354684,
536871036,2684354684,2147483775,198,179,189,198,169,179,189,167,184,196,177,188,180,193,171,167,173,190,169,187,168,178,196,192,198,183,192,196,189,173,190,187,189,192,194,194,191,179,169,198,167,186,167,183,178,194,183,193,190,194,186,171,195,173,186,190,171,195,197,177,172,171,169,170,187,176,193,186,173,193,192,187,192,183,127,536871036,2684354684,
536871036,2684354684,2147483775,172,193,176,181,174,188,167,172,183,180,175,167,170,194,184,177,187,192,171,174,195,198,176,179,177,177,188,198,167,176,183,192,194,189,195,198,186,176,172,192,196,182,169,181,167,177,175,193,181,169,182,192,183,183,189,178,194,178,196,186,167,198,171,171,179,174,169,186,176,183,189,188,190,179,127,536871036,2684354684,
536871036,2684354684,2147483775,182,183,189,189,169,180,171,197,190,185,186,186,179,197,181,169,180,181,191,182,188,190,177,189,192,189,174,181,177,188,171,174,198,187,174,188,169,179,176,168,197,167,183,190,179,183,188,179,176,190,188,196,181,187,177,169,190,184,186,173,181,198,175,182,188,197,192,176,190,186,193,171,180,187,127,536871036,2684354684,
536871036,2684354684,2147483775,187,193,169,167,167,186,197,191,190,188,195,171,181,178,167,175,176,178,180,184,194,181,167,176,178,193,177,171,197,186,190,191,190,170,167,184,180,179,170,192,180,175,188,167,194,167,192,191,197,179,181,187,192,167,173,198,197,171,170,181,175,184,182,179,194,186,198,194,170,177,177,193,197,173,127,536871036,2684354684,
536871036,2684354684,2147483775,194,196,184,197,183,181,168,182,192,182,186,172,190,186,189,183,176,194,172,195,171,183,185,196,197,173,173,169,179,183,188,191,183,188,197,189,175,196,167,194,188,194,184,179,184,186,193,193,170,169,191,186,186,181,193,170,183,188,169,183,180,172,181,183,186,193,170,180,184,173,182,174,173,172,127,536871036,2684354684,
536871036,2684354684,2147483775,179,168,191,179,185,169,167,174,186,184,179,192,172,196,194,183,190,169,188,167,171,190,197,190,176,188,188,197,180,190,197,176,186,177,193,188,171,176,198,167,193,198,197,174,193,197,189,188,183,197,198,197,190,189,172,190,197,168,186,190,171,197,197,180,181,169,167,190,196,170,183,190,183,192,127,536871036,2684354684,
536871036,2684354684,2147483775,186,186,198,177,198,182,191,186,182,181,197,170,185,185,183,176,171,197,194,172,167,197,197,182,170,176,183,172,174,182,185,176,185,167,174,174,197,179,181,167,178,171,171,182,180,173,171,178,171,171,181,170,176,197,197,192,197,171,182,197,176,198,194,190,192,179,186,185,193,167,176,182,176,181,127,536871036,2684354684,
536871036,2684354684,2147483775,175,171,186,188,169,183,188,186,179,176,181,186,170,183,174,196,193,171,190,183,188,171,180,179,192,197,191,182,170,181,180,176,193,179,167,196,191,169,197,186,194,175,175,181,180,182,176,179,179,193,169,170,179,189,177,172,171,175,193,184,173,192,170,191,167,198,197,196,173,189,197,190,191,171,127,536871036,2684354684,
536871036,2684354684,2147483775,170,176,183,180,189,171,179,197,179,197,197,172,195,167,197,171,185,196,171,173,183,179,179,172,192,189,188,167,193,172,198,176,192,179,196,196,187,169,189,189,181,167,184,167,190,182,190,188,191,169,182,167,182,181,190,169,180,192,180,174,196,183,193,196,183,169,190,175,174,196,180,169,181,172,127,536871036,2684354684,
536871036,2684354684,2147483775,176,177,187,167,197,182,186,190,187,180,185,196,180,181,197,178,193,169,197,173,196,177,169,198,182,183,170,179,194,170,176,176,188,176,191,198,183,182,170,190,169,175,177,176,183,186,169,189,172,197,198,169,167,167,190,183,190,181,177,196,186,186,188,190,170,174,175,191,175,167,193,196,172,182,127,536871036,2684354684,
536871036,2684354684,2147483775,197,176,171,179,183,172,176,181,196,183,176,184,197,181,189,179,179,186,186,198,183,169,183,184,177,196,185,191,186,182,169,169,183,190,172,200,179,176,173,176,175,167,176,181,189,186,183,188,197,175,169,169,176,172,184,183,186,178,172,169,187,167,172,178,167,193,179,187,170,197,189,167,191,173,127,536871036,2684354684,
536871036,2684354684,2147483775,173,187,194,183,196,173,191,172,183,191,172,192,193,172,186,169,180,197,188,189,181,167,178,181,184,188,224,215,223,207,215,207,199,208,224,215,224,199,216,208,208,208,216,208,224,215,200,216,183,189,178,171,197,188,183,193,189,167,173,167,172,186,171,177,171,189,169,197,183,171,186,186,188,186,127,536871036,2684354684,
536871036,2684354684,2147483775,193,182,197,195,191,171,167,187,187,168,170,167,197,169,186,170,172,170,184,181,171,176,173,189,187,172,223,119,119,119,119,119,119,119,119,119,119,119,119,119,119,119,119,119,119,119,119,215,174,193,177,172,192,190,190,194,180,169,167,187,172,181,187,167,185,187,197,177,194,193,194,189,196,176,127,536871036,2684354684,
536871036,2684354684,2147483775,180,172,183,197,177,180,184,169,195,190,176,189,192,190,167,181,194,191,192,197,177,196,171,171,181,181,199,119,119,119,119,119,119,119,119,119,119,119,119,119,119,119,119,119,119,119,119,200,180,169,167,187,178,194,167,167,186,169,186,176,189,174,167,189,197,193,184,177,168,197,167,180,192,193,127,536871036,2684354684,
536871036,2684354684,2147483775,171,189,194,186,192,180,186,172,180,193,197,181,179,167,178,180,191,198,193,192,194,171,189,169,177,194,224,119,119,119,119,119,119,119,119,119,119,119,119,119,119,119,119,119,119,119,119,207,196,189,198,188,194,182,181,189,188,193,177,189,196,189,194,177,188,181,190,187,181,169,189,197,170,183,127,536871036,2684354684,
536871036,2684354684,2147483775,185,173,167,197,188,179,197,191,169,193,192,169,193,190,185,172,167,171,181,168,169,175,196,169,186,175,207,119,119,119,119,119,119,119,119,119,119,119,119,119,119,119,119,119,119,119,119,200,167,169,169,169,198,183,198,193,170,191,187,198,192,168,184,190,178,180,191,192,187,176,173,181,174,184,127,536871036,2684354684,
536871036,2684354684,2147483775,179,198,188,180,169,186,180,179,188,181,189,167,187,169,187,180,169,179,180,173,169,180,197,179,190,187,224,119,119,119,119,119,119,119,119,119,119,119,119,119,119,119,119,119,119,119,119,216,169,187,197,180,171,185,193,170,181,185,167,179,190,183,190,171,194,190,187,181,181,180,194,184,170,190,127,536871036,2684354684,
536871036,2684354684,2147483775,176,183,189,194,174,173,186,193,198,174,180,182,183,179,194,170,183,179,198,179,194,181,188,192,187,190,207,119,119,119,119,119,119,119,119,119,119,119,119,119,119,119,119,119,119,119,119,223,181,173,181,173,197,172,189,173,183,182,189,190,179,183,170,197,176,196,169,171,196,170,167,171,170,188,127,536871036,2684354684,
536871036,2684354684,2147483775,194,184,183,188,197,183,167,187,171,182,183,172,175,186,175,188,188,180,169,190,190,197,169,196,186,223,200,119,119,119,119,119,119,119,119,119,119,119,119,119,119,119,119,119,119,119,119,208,189,186,183,183,192,170,173,189,183,188,189,187,196,198,168,172,191,187,196,197,188,196,182,172,189,195,127,536871036,2684354684,
536871036,2684354684,2147483775,176,184,189,168,198,180,171,173,181,170,176,183,184,178,186,171,181,167,197,181,168,169,172,169,186,208,207,119,119,119,119,119,119,119,119,119,119,119,119,119,119,119,119,119,119,119,119,208,198,181,196,169,194,172,171,174,190,197,194,184,169,169,172,183,173,176,192,173,192,184,194,197,172,194,127,536871036,2684354684,
536871036,2684354684,2147483775,173,186,185,169,183,189,186,192,194,190,197,197,176,183,180,167,170,173,173,177,180,179,167,176,182,207,200,119,119,119,119,119,119,119,119,119,119,119,119,119,119,119,119,119,119,119,119,199,197,189,192,186,193,190,181,169,180,183,197,181,182,193,179,169,173,192,173,184,180,172,167,180,191,181,127,536871036,2684354684,
536871036,2684354684,2147483775,191,188,167,189,174,171,187,196,173,171,169,197,192,197,198,192,180,183,191,189,196,191,189,181,169,208,216,119,119,119,119,119,119,119,119,119,119,119,119,119,119,119,119,119,119,119,119,215,171,188,189,180,192,181,169,177,188,193,197,181,186,197,177,189,190,187,171,167,190,173,197,176,194,193,127,536871036,2684354684,
536871036,2684354684,2147483775,198,167,180,181,181,182,186,172,185,180,169,191,190,172,197,176,174,194,197,167,173,181,196,177,175,215,207,119,119,119,119,119,119,119,119,119,119,119,119,119,119,119,119,119,119,119,119,216,189,185,190,190,190,189,167,183,170,180,190,187,192,180,190,176,170,176,187,183,183,179,194,192,182,188,127,536871036,2684354684,
536871036,2684354684,2147483775,169,194,167,167,179,188,182,196,197,180,173,197,179,181,173,167,195,173,169,195,188,179,197,175,183,216,199,119,119,119,119,119,119,119,119,119,119,119,119,119,119,119,119,119,119,119,119,199,186,173,198,194,186,194,187,172,193,193,186,196,189,190,194,195,181,167,181,181,179,183,167,173,179,183,127,536871036,2684354684,
536871036,2684354684,2147483775,171,178,181,183,183,167,176,175,186,176,183,181,177,194,170,193,187,176,180,186,179,176,171,172,192,208,224,119,119,119,119,119,119,119,119,119,119,119,119,119,119,119,119,119,119,119,119,215,169,179,169,180,193,177,189,170,191,190,189,177,184,179,197,190,179,178,175,167,167,183,190,187,192,198,127,536871036,2684354684,
536871036,2684354684,2147483775,191,167,176,186,180,167,167,187,171,167,181,181,187,180,188,178,192,196,187,192,197,196,193,172,197,208,207,119,119,119,119,119,119,119,119,119,119,119,119,119,119,119,119,119,119,119,119,215,186,169,167,191,197,186,184,169,177,173,180,170,198,182,169,169,167,167,179,197,191,198,188,179,189,198,127,536871036,2684354684,
536871036,2684354684,2147483775,179,171,178,186,172,197,177,198,182,196,169,176,193,184,192,183,172,167,175,183,173,187,185,180,180,224,208,119,119,119,119,119,119,119,119,119,119,119,119,119,119,119,119,119,119,119,119,207,179,196,172,172,172,175,184,187,181,196,185,184,169,194,167,190,192,192,197,194,174,197,180,179,194,190,127,536871036,2684354684,
536871036,2684354684,2147483775,176,187,172,167,176,192,177,190,173,171,183,189,176,184,172,171,191,196,191,186,183,198,182,179,188,215,207,119,119,119,119,119,119,119,119,119,119,119,119,119,119,119,119,119,119,119,119,215,176,175,190,187,173,182,167,176,169,188,176,186,169,167,189,193,179,171,172,198,180,184,175,196,169,173,127,536871036,2684354684,
536871036,2684354684,2147483775,190,167,189,191,177,181,189,184,181,183,197,198,183,197,181,187,196,182,182,169,190,167,173,192,172,208,200,119,119,119,119,119,119,119,119,119,119,119,119,119,119,119,119,119,119,119,119,215,182,169,173,169,189,176,172,197,183,198,192,182,188,189,195,171,181,172,183,194,197,174,187,181,180,193,127,536871036,2684354684,
536871036,2684354684,2147483775,167,198,177,173,167,167,186,187,186,186,187,170,181,175,194,170,180,180,168,171,171,167,177,178,190,207,208,119,119,119,119,119,119,119,119,119,119,119,119,119,119,119,119,119,119,119,119,207,181,197,170,167,173,186,176,167,177,182,170,198,189,198,186,171,193,196,193,178,173,167,183,188,190,192,127,536871036,2684354684,
536871036,2684354684,2147483775,186,186,167,169,197,186,180,177,179,167,175,180,172,187,189,176,179,170,193,192,169,182,173,189,176,224,208,119,119,119,119,119,119,119,119,119,119,119,119,119,119,119,119,119,119,119,119,224,198,181,188,176,192,189,196,183,186,180,183,193,187,180,180,197,180,178,193,169,179,189,174,188,198,189,127,536871036,2684354684,
536871036,2684354684,2147483775,192,172,197,171,181,193,179,186,174,190,180,171,179,189,196,167,167,180,169,189,188,169,196,198,181,200,223,119,119,119,119,119,119,119,119,119,119,119,119,119,119,119,119,119,119,119,119,208,183,179,182,192,189,186,197,180,175,181,189,194,187,196,187,179,167,188,197,174,183,198,188,182,186,196,127,536871036,2684354684,
536871036,2684354684,2147483775,168,188,198,183,177,173,189,173,172,173,187,196,167,183,190,181,193,171,187,197,176,180,177,170,172,215,216,119,119,119,119,119,119,119,119,119,119,119,119,119,119,119,119,119,119,119,119,200,198,183,169,173,184,178,180,169,189,186,190,189,188,170,196,180,184,169,172,174,167,186,169,180,169,183,127,536871036,2684354684,
536871036,2684354684,2147483775,192,197,170,196,167,183,181,189,197,193,186,186,169,170,177,193,172,184,171,176,169,174,167,189,190,169,216,119,119,119,119,119,119,119,119,119,119,119,119,119,119,119,119,119,119,119,119,208,170,189,179,176,198,189,184,192,176,193,167,167,176,189,193,172,193,183,184,187,182,197,182,181,177,173,127,536871036,2684354684,
536871036,2684354684,2147483775,192,183,198,197,192,193,171,181,195,183,180,183,176,171,180,198,178,195,188,187,183,181,198,189,179,224,216,119,119,119,119,119,119,119,119,119,119,119,119,119,119,119,119,119,119,119,119,208,187,168,183,196,169,198,173,198,187,167,170,171,181,182,188,197,193,192,197,192,171,177,180,169,172,189,127,536871036,2684354684,
536871036,2684354684,2147483775,180,197,198,193,175,192,183,192,181,181,183,183,186,167,175,167,180,175,179,189,167,183,196,173,186,223,199,119,119,119,119,119,119,119,119,119,119,119,119,119,119,119,119,119,119,119,119,216,179,173,173,176,179,182,183,167,177,197,167,187,181,178,173,176,182,174,181,195,185,178,172,182,180,186,127,536871036,2684354684,
536871036,2684354684,2147483775,172,172,169,183,179,182,181,181,173,171,190,170,191,184,192,186,194,193,190,193,188,173,167,176,187,216,208,119,119,119,119,119,119,119,119,119,119,119,119,119,119,119,119,119,119,119,119,207,183,167,172,169,176,174,186,167,197,169,180,172,187,189,194,191,174,171,193,194,169,192,184,170,172,172,127,536871036,2684354684,
536871036,2684354684,2147483775,189,172,198,177,190,172,188,171,194,189,194,182,173,179,175,176,181,182,171,167,197,197,173,167,183,208,208,119,119,119,119,119,119,119,119,119,119,119,119,119,119,119,119,119,119,119,119,224,176,175,182,196,172,167,180,197,175,198,172,169,181,168,169,182,180,168,173,175,169,174,193,169,180,186,127,536871036,2684354684,
536871036,2684354684,2147483775,169,180,189,190,167,174,185,193,182,188,198,168,177,178,178,167,177,197,190,179,190,186,192,187,223,208,208,119,119,119,119,119,119,119,119,119,119,119,119,119,119,119,119,119,119,119,119,207,179,196,172,167,169,192,192,184,181,180,176,181,176,171,186,198,192,197,172,182,189,176,186,186,176,198,127,536871036,2684354684,
536871036,2684354684,2147483775,172,186,169,189,188,191,186,167,191,186,178,167,179,183,173,190,189,167,186,197,192,182,189,169,186,223,223,119,119,119,119,119,119,119,119,119,119,119,119,119,119,119,119,119,119,119,119,200,196,196,193,197,189,170,171,188,198,182,167,193,183,171,171,197,181,180,182,193,167,175,183,188,169,184,127,536871036,2684354684,
536871036,2684354684,2147483775,190,170,197,185,183,167,180,172,171,196,178,170,194,167,197,187,189,190,173,198,169,190,176,172,195,224,223,119,119,119,119,119,119,119,119,119,119,119,119,119,119,119,119,119,119,119,119,208,177,167,183,175,193,176,198,189,183,176,189,183,178,173,173,178,197,183,186,177,183,179,178,184,195,183,127,536871036,2684354684,
536871036,2684354684,2147483775,173,192,173,179,185,185,171,180,172,180,178,186,167,189,174,191,198,193,169,188,193,169,198,169,167,223,208,119,119,119,119,119,119,119,119,119,119,119,119,119,119,119,119,119,119,119,119,223,174,198,167,174,180,181,186,197,186,198,175,182,185,180,177,189,183,180,198,189,179,180,188,190,171,180,127,536871036,2684354684,
536871036,2684354684,2147483775,173,183,169,167,195,198,193,187,172,167,168,176,169,198,180,167,184,171,172,181,182,169,176,192,187,199,223,119,119,119,119,119,119,119,119,119,119,119,119,119,119,119,119,119,119,119,119,207,196,193,193,173,167,175,172,169,190,176,188,176,176,190,172,182,169,198,197,196,180,195,183,190,189,190,127,536871036,2684354684,
536871036,2684354684,2147483775,189,167,196,180,167,197,181,197,197,176,192,168,179,167,188,189,172,197,180,187,197,181,183,197,188,200,207,119,119,119,119,119,119,119,119,119,119,119,119,119,119,119,119,119,119,119,119,216,171,167,177,197,182,186,178,169,197,172,175,170,198,176,167,167,190,193,193,186,178,196,167,196,181,176,127,536871036,2684354684,
536871036,2684354684,2147483775,179,177,176,196,172,169,176,193,169,197,180,195,186,169,179,188,196,186,172,167,196,196,180,193,193,200,215,119,119,119,119,119,119,119,119,119,119,119,119,119,119,119,119,119,119,119,119,207,176,180,179,169,175,193,198,193,175,187,179,172,183,192,171,167,171,189,188,171,192,198,168,167,197,183,127,536871036,2684354684,
536871036,2684354684,2147483775,179,167,186,173,176,173,189,172,169,182,198,167,183,197,189,193,172,179,171,179,182,169,175,182,167,216,223,119,119,119,119,119,119,119,119,119,119,119,119,119,119,119,119,119,119,119,119,224,189,176,182,169,189,198,189,172,187,198,191,172,179,180,180,171,198,180,178,180,192,190,181,188,171,196,127,536871036,2684354684,
536871036,2684354684,2147483775,186,172,181,173,168,197,190,167,181,171,170,175,188,183,187,198,174,174,196,197,190,184,197,177,183,216,207,119,119,119,119,119,119,119,119,119,119,119,119,119,119,119,119,119,119,119,119,199,172,172,187,180,176,198,181,183,183,192,191,172,172,197,197,180,189,197,197,172,189,174,172,182,167,167,127,536871036,2684354684,
536871036,2684354684,2147483775,198,173,182,183,172,196,186,189,197,173,186,191,171,168,193,172,167,172,172,174,173,181,167,170,182,223,200,119,119,119,119,119,119,119,119,119,119,119,119,119,119,119,119,119,119,119,119,199,174,183,192,196,169,194,183,179,170,169,198,176,167,190,176,190,183,190,174,181,196,186,178,193,174,185,127,536871036,2684354684,
536871036,2684354684,2147483775,181,173,174,189,183,189,176,194,171,198,190,188,183,186,196,176,172,189,190,184,183,167,196,187,174,215,208,119,119,119,119,119,119,119,119,119,119,119,119,119,119,119,119,119,119,119,119,224,198,198,190,176,197,171,179,181,187,190,189,179,188,184,186,197,197,187,189,190,197,195,167,182,190,183,127,536871036,2684354684,
536871036,2684354684,2147483775,189,194,189,167,179,196,187,170,184,180,172,167,192,169,187,180,195,175,192,194,186,197,182,174,190,216,200,119,119,119,119,119,119,119,119,119,119,119,119,119,119,119,119,119,119,119,119,215,196,173,198,169,180,171,190,182,188,167,189,167,167,178,167,186,167,183,184,193,174,167,197,187,197,185,127,536871036,2684354684,
536871036,2684354684,2147483775,186,171,178,193,167,198,183,184,179,195,187,197,190,182,193,173,182,174,188,180,167,176,192,188,184,223,207,119,119,119,119,119,119,119,119,119,119,119,119,119,119,119,119,119,119,119,119,216,179,174,172,189,181,192,183,187,174,188,195,167,187,167,167,180,195,179,193,192,167,171,168,187,167,194,127,536871036,2684354684,
536871036,2684354684,2147483775,170,169,193,178,197,186,167,193,192,198,196,189,179,176,173,198,172,197,184,187,173,185,180,188,172,215,207,119,119,119,119,119,119,119,119,119,119,119,119,119,119,119,119,119,119,119,119,200,171,181,171,192,172,168,173,172,195,189,174,171,189,187,194,192,194,182,174,196,169,181,189,189,189,194,127,536871036,2684354684,
536871036,2684354684,2147483775,173,179,194,196,183,179,189,172,190,198,177,169,169,169,183,186,190,171,172,171,176,167,185,175,191,216,215,119,119,119,119,119,119,119,119,119,119,119,119,119,119,119,119,119,119,119,119,199,186,174,183,189,183,168,197,188,181,170,189,182,196,176,176,197,197,192,167,167,194,194,186,167,193,177,127,536871036,2684354684,
536871036,2684354684,2147483775,183,187,181,172,170,198,196,169,192,183,193,186,192,186,175,197,180,176,169,187,180,167,169,167,192,199,200,119,119,119,119,119,119,119,119,119,119,119,119,119,119,119,119,119,119,119,119,208,170,195,197,180,172,186,181,189,172,190,176,186,188,176,196,193,197,167,181,174,182,179,175,188,183,172,127,536871036,2684354684,
536871036,2684354684,2147483775,193,176,189,186,184,169,180,197,175,169,183,193,181,169,196,167,198,186,184,169,177,180,198,180,193,223,224,119,119,119,119,119,119,119,119,119,119,119,119,119,119,119,119,119,119,119,119,215,174,167,190,172,178,169,187,175,174,188,183,193,174,179,197,171,172,194,169,188,187,183,190,187,188,183,127,536871036,2684354684,
536871036,2684354684,3221225610,2684354687,2684354687,2684354687,2684354687,2684354687,2684354687,2684354687,2684354687,2684354687,2684354687,2684354687,2684354687,2684354687,2684354687,2684354687,2684354687,2684354687,2684354687,2684354687,2684354687,2684354687,2684354687,2684354687,2684354687,2684354687,2684354687,2684354687,2684354687,2684354687,2684354687,2684354687,2684354687,2684354687,2684354687,2684354687,2684354687,2684354687,2684354687,2684354687,2684354687,2684354687,2684354687,2684354687,2684354687,2684354687,2684354687,2684354687,2684354687,2684354687,2684354687,2684354687,2684354687,2684354687,2684354687,2684354687,2684354687,2684354687,2684354687,2684354687,2684354687,2684354687,2684354687,2684354687,2684354687,2684354687,2684354687,2684354687,2684354687,2684354687,2684354687,2684354687,2684354687,2684354687,2684354687,2684354698,536871036,2684354684,
536871037,536871037,124,124,124,124,124,124,124,124,124,124,124,124,124,124,124,124,124,124,124,124,124,124,124,124,124,124,124,124,124,124,124,124,124,124,124,124,124,124,124,124,124,124,124,124,124,124,124,124,124,124,124,124,124,124,124,124,124,124,124,124,124,124,124,124,124,124,124,124,124,124,124,124,124,124,124,124,536871037,536871037,
536871037,536871037,1073741948,1073741948,1073741948,1073741948,1073741948,1073741948,1073741948,1073741948,1073741948,1073741948,1073741948,1073741948,1073741948,1073741948,1073741948,1073741948,1073741948,1073741948,1073741948,1073741948,1073741948,1073741948,1073741948,1073741948,1073741948,1073741948,1073741948,1073741948,1073741948,1073741948,1073741948,1073741948,1073741948,1073741948,1073741948,1073741948,1073741948,1073741948,1073741948,1073741948,1073741948,1073741948,1073741948,1073741948,1073741948,1073741948,1073741948,1073741948,1073741948,1073741948,1073741948,1073741948,1073741948,1073741948,1073741948,1073741948,1073741948,1073741948,1073741948,1073741948,1073741948,1073741948,1073741948,1073741948,1073741948,1073741948,1073741948,1073741948,1073741948,1073741948,1073741948,1073741948,1073741948,1073741948,1073741948,1073741948,536871037,536871037
</data>
 </layer>
 <layer id="14" name="Object" width="80" height="80">
  <data encoding="csv">
0,0,0,0,0,0,0,0,0,0,0,0,0,0,0,0,0,0,0,0,0,0,0,0,0,0,0,0,0,0,0,0,0,0,0,0,0,0,0,0,0,0,0,0,0,0,0,0,0,0,0,0,0,0,0,0,0,0,0,0,0,0,0,0,0,0,0,0,0,0,0,0,0,0,0,0,0,0,0,0,
0,0,0,0,0,0,0,0,0,0,0,0,0,0,0,0,0,0,0,0,0,0,0,0,0,0,0,0,0,0,0,0,0,0,0,0,0,0,0,0,0,0,0,0,0,0,0,0,0,0,0,0,0,0,0,0,0,0,0,0,0,0,0,0,0,0,0,0,0,0,0,0,0,0,0,0,0,0,0,0,
0,0,0,0,0,0,0,0,0,0,0,0,0,0,0,0,0,0,0,0,0,0,0,0,0,0,0,0,0,0,0,0,0,0,0,0,0,0,0,0,0,0,1610612863,1610612863,1610612863,1610612863,1610612863,1610612863,1610612863,1610612863,1610612863,1610612863,1610612863,1610612863,1610612863,1610612863,1610612863,1610612863,1610612863,1610612863,1610612863,1610612863,1610612863,1610612863,1610612863,1610612863,1610612863,1610612863,1610612863,1610612863,1610612863,1610612863,1610612863,1610612863,1610612863,0,0,0,0,0,
0,0,0,0,0,0,0,0,0,0,0,0,0,0,0,0,100,0,0,0,0,0,0,0,0,0,0,0,0,0,0,0,0,0,0,0,0,0,0,0,0,0,0,0,0,0,0,0,0,0,0,0,0,0,0,0,0,0,0,0,0,0,0,0,0,0,0,0,0,0,0,0,0,0,0,0,0,0,0,0,
0,0,0,0,0,0,0,0,0,0,0,0,0,0,0,0,0,0,0,0,0,0,0,0,0,0,236,237,238,0,0,0,0,0,0,0,0,0,0,0,0,0,0,0,0,0,0,0,0,0,0,0,0,0,0,0,0,0,0,0,0,0,0,0,0,0,0,0,0,0,0,0,0,0,0,0,0,0,0,0,
0,0,0,0,0,0,0,0,0,0,236,237,238,0,0,0,0,0,0,0,0,0,0,0,0,0,252,253,254,0,0,0,0,0,0,0,0,0,0,0,0,0,0,0,0,0,0,236,237,238,0,0,0,0,0,0,0,0,0,0,0,0,0,0,0,0,0,0,0,0,0,0,0,0,0,0,0,0,0,0,
0,0,0,0,0,0,0,0,0,0,252,253,254,0,0,0,0,0,0,0,0,0,0,0,0,0,268,269,270,0,0,0,0,0,0,0,0,0,0,0,0,0,0,0,0,0,0,252,253,254,0,0,0,0,0,0,0,0,0,0,0,0,0,0,0,0,0,0,0,0,0,0,236,237,238,0,0,0,0,0,
0,0,0,0,0,0,0,0,0,0,268,269,270,0,0,0,0,0,0,0,0,0,0,0,0,0,284,285,286,0,0,0,0,0,0,0,0,0,0,0,0,0,0,0,0,0,0,268,269,270,0,0,0,0,0,0,0,0,0,0,0,0,0,0,0,0,0,0,0,0,0,0,252,253,254,0,0,0,0,0,
0,0,0,0,0,0,0,0,0,0,284,285,286,0,0,0,0,0,0,0,0,0,0,0,0,0,300,301,302,0,0,0,0,0,0,0,0,0,0,0,0,0,0,0,0,0,0,284,285,286,0,0,0,0,0,0,0,0,0,0,0,0,0,0,0,0,0,0,0,0,0,0,268,269,270,0,0,0,0,0,
0,0,0,0,0,0,0,0,0,0,300,301,302,0,0,0,0,0,0,0,0,0,0,0,0,0,0,104,0,0,0,0,0,0,0,0,0,0,236,237,238,0,0,0,0,0,0,300,301,302,0,0,0,0,0,0,0,0,0,0,0,0,0,0,0,0,0,0,0,0,0,0,284,285,286,0,0,0,0,0,
0,0,0,0,0,0,0,0,0,0,0,0,0,0,0,0,0,0,0,0,0,0,0,0,0,0,0,0,0,0,0,0,0,0,0,0,0,0,252,253,254,0,0,0,0,0,0,0,0,0,0,0,0,0,0,0,0,0,0,0,0,0,0,0,0,0,0,0,0,0,0,0,300,301,302,0,0,0,0,0,
0,0,0,0,0,0,0,0,0,0,0,0,0,0,236,237,238,0,0,0,0,0,0,0,0,0,0,0,0,0,0,0,0,0,0,0,0,0,268,269,270,0,0,0,0,0,0,0,0,0,0,0,0,0,0,0,0,0,236,237,238,0,0,0,0,0,0,0,0,0,0,0,0,0,0,0,0,0,0,0,
0,0,0,0,0,0,0,0,0,0,0,0,0,0,252,253,254,0,0,0,0,0,0,0,0,0,0,0,0,0,0,0,0,0,0,0,0,0,284,285,286,0,0,0,0,0,0,0,0,0,0,0,0,0,0,0,0,0,252,253,254,0,0,0,0,0,0,0,0,0,0,0,0,0,0,0,0,0,0,0,
0,0,0,0,0,0,0,0,0,0,0,0,0,0,268,269,270,0,0,0,0,0,0,0,0,0,0,0,0,0,0,0,0,0,0,0,0,0,300,301,302,0,0,0,0,0,0,0,0,0,0,0,0,0,0,0,0,0,268,269,270,0,0,0,0,0,0,0,0,0,0,0,0,0,0,0,0,0,0,0,
0,0,0,0,0,0,0,0,0,0,0,0,0,0,284,285,286,0,0,0,0,0,236,237,238,0,0,0,0,0,0,0,0,0,0,0,0,0,0,0,0,0,0,0,0,0,0,0,0,0,0,0,0,0,0,0,0,0,284,285,286,0,0,0,0,0,0,0,0,0,0,0,0,0,0,0,0,0,0,0,
0,0,0,0,0,0,0,0,0,0,0,0,0,0,300,301,302,0,0,0,0,0,252,253,254,0,0,0,0,0,0,0,0,0,0,0,0,0,0,0,0,0,0,0,0,0,0,0,0,0,0,0,0,0,0,0,0,0,300,301,302,0,0,0,0,0,0,0,0,0,0,0,0,0,0,0,0,0,0,0,
0,0,0,0,0,0,0,0,0,0,0,0,0,0,0,0,0,0,0,0,0,0,268,269,270,0,0,0,0,0,0,0,0,0,0,0,0,0,0,0,0,0,0,0,0,0,0,0,0,0,0,0,0,0,0,0,0,0,0,104,0,0,0,0,0,0,0,0,0,0,0,0,0,0,0,0,0,0,0,0,
0,0,0,0,0,0,0,0,0,0,0,0,0,0,0,0,0,0,0,0,0,0,284,285,286,0,0,0,0,0,0,0,0,0,0,0,0,0,0,0,0,0,0,0,0,0,0,0,0,0,0,0,0,0,0,0,0,0,0,0,0,0,0,0,0,0,0,0,0,0,0,0,0,0,0,0,0,0,0,0,
0,0,0,0,0,0,0,0,0,0,0,0,0,0,0,0,0,0,0,0,0,0,300,301,302,0,0,0,0,0,0,0,0,0,0,0,0,0,0,0,0,0,0,0,0,0,0,0,0,0,0,0,0,0,0,0,0,0,0,0,0,0,0,0,0,0,0,0,0,0,0,0,0,0,0,0,0,0,0,0,
0,0,0,0,0,0,0,0,0,0,0,0,0,0,0,0,0,0,0,0,0,0,0,104,0,0,0,0,0,0,0,0,0,0,0,0,0,0,0,0,0,0,0,0,0,0,0,0,0,0,0,0,0,0,0,0,0,0,0,0,0,0,0,0,0,0,0,0,0,0,0,0,0,0,0,0,0,0,0,0,
0,0,0,0,0,0,0,0,0,0,0,0,0,0,0,0,0,0,0,0,0,0,0,0,0,0,0,0,0,0,0,0,0,0,0,0,0,0,0,0,0,0,0,0,0,0,0,0,0,0,0,0,0,0,0,0,0,0,0,0,0,0,0,0,0,0,0,0,0,0,0,0,0,0,0,0,0,0,0,0,
0,0,0,0,0,0,0,0,0,0,0,0,0,0,0,0,0,0,0,0,0,0,0,0,0,0,0,0,0,0,0,0,0,0,0,0,0,0,0,0,0,0,0,0,0,0,0,0,0,0,0,0,0,0,0,0,0,0,0,0,0,0,0,0,0,0,0,0,0,0,0,0,0,0,0,0,0,0,0,0,
0,0,0,0,0,0,0,0,0,0,0,0,0,0,0,0,0,0,0,0,0,0,0,0,0,0,0,0,0,0,0,0,0,0,0,0,0,0,0,0,0,0,0,0,0,0,0,0,0,0,0,0,0,0,0,0,0,0,0,0,0,0,0,0,0,0,0,0,0,0,0,0,0,0,0,0,0,0,0,0,
0,0,0,0,0,0,0,0,0,0,236,237,238,0,0,0,0,0,0,0,0,0,0,0,0,0,0,0,0,0,0,0,0,0,0,0,0,0,0,0,0,0,0,0,0,0,0,0,0,0,0,0,0,0,0,0,0,0,0,0,0,0,0,0,0,0,0,0,0,0,0,0,0,0,0,0,0,0,0,0,
0,0,0,0,0,0,0,0,0,0,252,253,254,0,0,0,0,0,0,236,237,238,0,0,0,0,0,0,0,0,0,0,0,0,0,0,0,0,0,0,0,0,0,0,0,0,0,0,0,0,0,0,0,0,0,0,0,0,0,0,0,0,0,0,0,0,0,0,0,0,0,0,0,0,0,0,0,0,0,0,
0,0,0,0,0,0,0,0,0,0,268,269,270,0,0,0,0,0,0,252,253,254,0,0,0,0,0,0,0,0,0,0,0,0,0,0,0,0,0,0,0,0,0,0,0,0,0,0,0,0,0,0,0,0,0,0,0,0,0,0,0,0,0,0,0,0,0,0,0,0,0,0,0,0,0,0,0,0,0,0,
0,0,0,0,0,0,0,0,0,0,284,285,286,0,0,0,0,0,0,268,269,270,0,0,0,0,0,0,0,0,0,0,0,0,0,0,0,0,0,0,0,0,0,0,0,0,0,0,0,0,0,0,0,0,0,0,0,0,0,0,0,0,0,0,0,0,0,0,0,0,0,0,0,0,0,0,0,0,0,0,
0,0,0,0,0,0,0,0,0,0,300,301,302,0,0,0,0,0,0,284,285,286,0,0,0,0,0,0,0,0,0,0,0,0,0,0,0,0,0,0,0,0,0,0,0,0,0,0,0,0,0,0,0,0,0,0,0,0,0,0,0,0,0,0,0,0,0,0,0,0,0,0,0,0,0,0,0,0,0,0,
0,0,0,0,0,0,0,0,0,0,0,0,0,0,0,0,0,0,0,300,301,302,0,0,0,0,0,0,0,0,0,0,0,0,0,0,0,0,0,0,0,0,0,0,0,0,0,0,0,0,0,0,0,0,0,0,0,0,0,0,0,0,0,0,0,0,0,0,0,0,0,0,0,0,0,0,0,0,0,0,
0,0,0,0,0,0,0,0,0,0,0,0,0,0,0,0,0,0,0,0,0,0,0,0,0,0,0,0,0,0,0,0,0,0,0,0,0,0,0,0,0,0,0,0,0,0,0,0,0,0,0,0,0,0,0,0,0,0,0,236,237,238,0,0,0,0,0,0,0,0,0,0,0,0,0,0,0,0,0,0,
0,0,0,0,0,0,0,0,0,0,0,0,0,0,0,0,0,0,0,0,0,0,0,0,0,0,0,0,0,0,0,0,0,0,0,0,0,0,0,0,0,0,0,0,0,0,0,0,0,0,0,0,0,0,0,0,0,0,0,252,253,254,0,0,0,0,0,0,0,0,0,0,0,0,0,0,0,0,0,0,
0,0,0,0,0,0,0,0,0,0,0,0,0,0,0,0,0,0,0,0,0,0,0,0,0,0,0,0,0,0,0,0,0,0,0,0,0,0,0,0,0,0,0,0,0,0,0,0,0,0,0,0,0,0,0,0,0,0,0,268,269,270,0,0,0,0,0,0,0,0,0,0,0,0,0,0,0,0,0,0,
0,0,0,0,0,0,0,0,0,0,0,0,0,0,0,0,0,0,0,0,0,0,0,0,0,0,0,0,0,0,0,0,0,0,0,0,0,0,0,0,0,0,0,0,0,0,0,0,0,0,0,0,0,0,0,0,0,0,0,284,285,286,0,0,0,0,0,0,0,0,0,0,0,0,0,0,0,0,0,0,
0,0,0,0,0,0,0,0,0,0,0,0,0,0,0,236,237,238,0,0,0,0,0,0,0,0,0,0,0,0,0,0,0,0,0,0,0,0,0,0,0,0,0,0,0,0,0,0,0,0,0,0,0,0,0,0,0,0,0,300,301,302,0,0,0,0,0,0,0,0,0,0,0,0,236,237,238,0,0,0,
0,0,0,0,0,0,0,0,0,0,0,0,0,0,0,252,253,254,0,0,0,0,0,0,0,0,0,0,0,0,0,0,0,0,0,0,0,0,0,0,0,0,0,0,0,0,0,0,0,0,0,0,0,0,0,0,0,0,0,0,104,0,0,0,0,0,0,0,0,0,0,0,0,0,252,253,254,0,0,0,
0,0,0,0,0,0,0,0,0,0,0,0,0,0,0,268,269,270,0,0,0,0,0,0,0,0,0,0,0,0,0,0,0,0,0,0,0,0,0,0,0,0,0,0,0,0,0,0,0,0,0,0,0,0,0,0,0,0,0,0,0,0,0,0,0,236,237,238,0,0,0,0,0,0,268,269,270,0,0,0,
0,0,0,0,0,0,0,0,0,0,0,0,0,0,0,284,285,286,0,0,0,0,0,0,0,0,0,0,0,0,0,0,0,0,0,0,0,0,0,0,0,0,0,0,0,0,0,0,0,0,0,0,0,0,0,0,0,0,0,0,0,0,0,0,0,252,253,254,0,0,0,0,0,0,284,285,286,0,0,0,
0,0,0,0,0,0,0,236,237,238,0,0,0,0,0,300,301,302,0,0,0,0,0,0,0,0,0,0,0,0,0,0,0,0,0,0,0,0,0,0,0,0,0,0,0,0,0,0,0,0,0,0,0,0,0,0,0,0,0,0,0,0,0,0,0,268,269,270,0,0,0,0,0,0,300,301,302,0,0,0,
0,0,0,0,0,0,0,252,253,254,0,0,0,0,0,0,104,0,0,0,0,0,0,0,0,0,0,0,0,0,0,0,0,0,0,0,0,0,0,0,0,0,0,0,0,0,0,0,0,0,0,0,0,0,0,0,0,0,0,0,0,0,0,0,0,284,285,286,0,0,0,0,0,0,0,104,0,0,0,0,
0,0,0,0,0,0,0,268,269,270,0,0,0,0,0,0,0,0,0,0,0,0,0,0,0,0,2147483749,0,0,0,0,0,0,0,0,0,0,0,0,0,0,0,0,0,0,0,0,0,0,0,0,0,0,0,0,0,0,0,0,0,0,0,0,0,0,300,301,302,0,0,0,0,0,0,0,0,0,0,0,0,
0,0,0,0,0,0,0,284,285,286,0,0,0,0,0,0,0,0,0,0,0,0,0,0,0,0,0,0,0,0,0,0,0,0,0,0,0,0,0,0,0,0,0,0,0,0,0,0,0,0,0,0,0,0,0,0,0,0,0,0,0,0,0,0,0,0,0,0,0,0,0,0,0,0,0,0,0,0,0,0,
0,0,0,0,0,0,0,300,301,302,0,0,0,0,0,0,0,0,0,0,0,0,0,0,0,0,0,0,0,0,0,0,0,0,0,0,0,0,0,0,0,0,0,0,0,0,0,0,0,0,0,0,0,0,0,0,0,0,0,0,0,0,0,0,0,0,0,0,0,0,0,0,0,0,0,0,0,0,0,0,
0,0,0,0,0,0,0,0,0,0,0,0,0,0,0,0,0,0,0,0,0,0,0,0,0,0,0,0,0,0,0,0,0,0,0,0,0,0,0,0,0,0,0,0,0,0,0,0,0,0,0,0,0,0,0,0,0,0,0,0,0,0,0,0,0,0,0,0,0,0,0,0,0,0,0,0,0,0,0,0,
0,0,0,0,0,0,0,0,0,0,0,0,0,0,0,0,0,0,0,0,0,0,0,0,0,0,0,0,0,0,0,0,0,0,0,0,0,0,0,0,0,0,0,0,0,0,0,0,0,0,0,0,0,0,0,0,0,0,0,0,0,0,0,0,0,0,0,0,0,0,0,0,0,0,0,0,0,0,0,0,
0,0,0,0,0,0,236,237,238,0,0,0,0,0,0,0,0,0,0,0,0,0,0,0,0,0,0,0,0,0,0,0,0,0,0,0,0,0,0,0,0,0,0,0,0,0,0,0,0,0,0,0,0,0,0,0,0,0,0,0,0,0,0,0,0,0,0,0,0,0,0,0,0,0,0,0,0,0,0,0,
0,0,0,0,0,0,252,253,254,0,0,0,0,0,0,0,0,0,0,0,0,0,0,0,0,0,0,0,0,0,0,0,0,0,0,0,0,0,0,0,0,0,0,0,0,0,0,0,0,0,0,0,0,0,0,0,0,0,0,0,0,0,0,0,0,0,0,0,0,0,0,0,0,0,0,0,0,0,0,0,
0,0,0,0,0,0,268,269,270,0,0,0,0,0,0,236,237,238,0,0,0,0,0,0,0,0,0,0,0,0,0,0,0,0,0,0,0,0,0,0,0,0,0,0,0,0,0,0,0,0,0,0,0,0,0,0,0,0,0,0,0,0,0,0,0,0,0,0,0,0,0,0,0,0,0,0,0,0,0,0,
0,0,0,0,0,0,284,285,286,0,0,0,0,0,0,252,253,254,0,0,0,0,0,0,0,0,0,0,0,0,0,0,0,0,0,0,0,0,0,0,0,0,0,0,0,0,0,0,0,0,0,0,0,0,0,0,0,0,0,0,0,0,0,0,0,0,0,0,0,0,0,0,0,0,0,0,0,0,0,0,
0,0,0,0,0,0,300,301,302,0,0,0,0,0,0,268,269,270,0,0,0,0,0,0,0,0,0,0,0,0,0,0,0,0,0,0,0,0,0,0,0,0,0,0,0,0,0,0,0,0,0,0,0,0,0,0,0,0,0,0,0,0,236,237,238,0,0,0,0,0,0,0,0,0,0,0,0,0,0,0,
0,0,0,0,0,0,0,0,0,0,0,0,0,0,0,284,285,286,0,0,0,0,0,0,0,0,0,0,0,0,0,0,0,0,0,0,0,0,0,0,0,0,0,0,0,0,0,0,0,0,0,0,0,0,0,0,0,0,0,0,0,0,252,253,254,0,0,0,0,0,0,0,0,0,0,0,0,0,0,0,
0,0,0,0,0,0,0,0,0,0,0,0,0,0,0,300,301,302,0,0,0,0,0,0,0,0,0,0,0,0,0,0,0,0,0,0,0,0,0,0,0,0,0,0,0,0,0,0,0,0,0,0,0,0,0,0,0,0,0,0,0,0,268,269,270,0,0,0,0,0,236,237,238,0,0,0,0,0,0,0,
0,0,0,0,0,0,0,0,0,0,0,0,0,0,0,0,0,0,0,0,0,0,0,0,0,0,2147483749,0,0,0,0,0,0,0,0,0,0,0,0,0,0,0,0,0,0,0,0,0,0,0,0,101,0,0,0,0,0,0,0,0,0,0,284,285,286,0,0,0,0,0,252,253,254,0,0,0,0,0,0,0,
0,0,0,0,0,0,0,0,0,0,0,0,0,0,0,0,0,0,0,0,0,0,0,0,0,0,0,0,0,0,0,0,0,0,0,0,0,0,0,0,0,0,0,0,0,0,0,0,0,0,0,0,0,0,0,0,0,0,0,0,0,0,300,301,302,0,0,0,0,0,268,269,270,0,0,0,0,0,0,0,
0,0,0,0,0,0,0,0,0,0,0,0,0,0,0,0,0,0,0,0,0,0,0,0,0,0,0,0,0,0,0,0,0,0,0,0,0,0,0,0,0,0,0,0,0,0,0,0,0,0,0,0,0,0,0,0,0,0,0,0,0,0,0,0,0,0,0,0,0,0,284,285,286,0,0,0,0,0,0,0,
0,0,0,0,0,0,0,0,0,0,0,0,0,0,0,0,236,237,238,0,0,0,0,0,0,0,0,0,0,0,0,0,0,0,0,0,0,0,0,0,0,0,0,0,0,0,0,0,0,0,0,0,0,0,0,0,0,0,0,0,0,0,0,0,0,0,0,0,0,0,300,301,302,0,0,0,0,0,0,0,
0,0,0,0,0,0,0,0,0,0,0,0,0,0,0,0,252,253,254,0,0,0,0,0,0,0,0,0,0,0,0,0,0,0,0,0,0,0,0,0,0,0,0,0,0,0,0,0,0,0,0,0,0,0,0,0,0,0,0,0,0,0,0,0,0,0,0,0,0,0,0,0,0,0,0,0,0,0,0,0,
0,0,0,0,0,0,0,0,0,0,0,0,0,0,0,0,268,269,270,0,0,0,0,0,0,0,0,0,0,0,0,0,0,0,0,0,0,0,0,0,0,0,0,0,0,0,0,0,0,0,0,0,0,0,0,0,0,0,0,0,0,0,0,0,0,0,0,0,0,0,0,0,0,0,0,0,0,0,0,0,
0,0,0,0,0,0,0,0,0,0,0,0,0,0,0,0,284,285,286,0,0,0,0,0,0,0,0,0,0,0,0,0,0,0,0,0,0,0,0,0,0,0,0,0,0,0,0,0,0,0,0,0,0,0,0,0,0,0,0,0,0,0,0,0,0,0,0,0,0,0,0,0,0,0,0,0,0,0,0,0,
0,0,0,0,0,0,0,236,237,238,0,0,0,0,0,0,300,301,302,0,0,0,0,0,0,0,0,0,0,0,0,0,0,0,0,0,0,0,0,0,0,0,0,0,0,0,0,0,0,0,0,0,0,0,0,0,0,0,0,0,0,0,0,0,0,0,0,0,0,0,0,0,0,0,0,0,0,0,0,0,
0,0,0,0,0,0,0,252,253,254,0,0,0,0,0,0,0,104,0,0,0,0,0,0,0,0,0,0,0,0,0,0,0,0,0,0,0,0,0,0,0,0,0,0,0,0,0,0,0,0,0,0,0,0,0,0,0,0,0,0,0,0,0,0,0,0,0,0,0,0,0,0,0,0,0,0,0,0,0,0,
0,0,0,0,0,0,0,268,269,270,0,0,0,0,0,0,0,0,0,0,0,0,0,0,0,0,0,0,0,0,0,0,0,0,0,0,0,0,0,0,0,0,0,0,0,0,0,0,0,0,0,0,0,0,0,0,0,0,0,0,0,0,236,237,238,0,0,0,0,0,236,237,238,0,0,0,0,0,0,0,
0,0,0,0,0,0,0,284,285,286,0,0,0,0,0,0,0,0,0,0,0,0,0,0,0,0,0,0,0,0,0,0,0,0,0,0,0,0,0,0,0,0,0,0,0,0,0,0,0,0,0,0,0,0,0,0,0,0,0,0,0,0,252,253,254,0,0,0,0,0,252,253,254,0,0,0,0,0,0,0,
0,0,0,0,0,0,0,300,301,302,0,0,0,0,0,0,0,0,0,0,0,0,0,0,0,2147483749,0,0,0,0,0,0,0,0,0,0,0,0,0,0,0,0,0,0,0,0,0,0,0,0,0,101,0,0,0,0,0,0,0,0,0,0,268,269,270,0,0,0,0,0,268,269,270,0,0,0,0,0,0,0,
0,0,0,0,0,0,0,0,0,0,0,0,0,0,0,236,237,238,0,0,0,0,0,0,0,0,0,0,0,0,0,0,0,0,0,0,0,0,0,0,0,0,0,0,0,0,0,0,0,0,0,0,0,0,0,0,0,0,0,0,0,0,284,285,286,0,0,0,0,0,284,285,286,0,0,0,0,0,0,0,
0,0,0,0,0,0,0,0,0,0,0,0,0,0,0,252,253,254,0,0,0,0,0,0,0,0,0,0,0,0,0,0,0,0,0,0,0,0,0,0,0,0,0,0,0,0,0,0,0,0,0,0,0,0,0,0,0,0,0,0,0,0,300,301,302,0,0,0,0,0,300,301,302,0,0,0,0,0,0,0,
0,0,0,0,0,0,0,0,0,0,0,0,0,0,0,268,269,270,0,0,0,0,0,0,0,0,0,0,0,0,0,0,0,0,0,0,0,0,0,0,0,0,0,0,0,0,0,0,0,0,0,0,0,0,0,0,0,0,0,0,0,0,0,0,0,0,0,0,0,0,0,0,0,0,0,0,0,0,0,0,
0,0,0,0,0,0,0,0,0,0,0,0,0,0,0,284,285,286,0,0,0,0,0,0,0,0,0,0,0,0,0,0,0,0,0,0,0,0,0,0,0,0,0,0,0,0,0,0,0,0,0,0,0,0,0,0,0,0,0,0,0,0,0,0,0,0,0,0,0,0,0,0,0,0,0,0,0,0,0,0,
0,0,0,0,0,0,0,0,0,0,0,0,0,0,0,300,301,302,0,0,0,0,0,0,0,0,0,0,0,0,0,0,0,0,0,0,0,0,0,0,0,0,0,0,0,0,0,0,0,0,0,0,0,0,0,0,0,0,0,236,237,238,0,0,0,0,0,0,0,0,0,0,0,0,0,0,0,0,0,0,
0,0,0,0,0,0,0,0,236,237,238,0,0,0,0,104,0,0,0,0,0,0,0,0,0,0,0,0,0,0,0,0,0,0,0,0,0,0,0,0,0,0,0,0,0,0,0,0,0,0,0,0,0,0,0,0,0,0,0,252,253,254,0,0,0,0,0,236,237,238,0,0,0,0,0,0,0,0,0,0,
0,0,0,0,0,0,0,0,252,253,254,0,0,0,0,0,0,0,0,0,0,0,0,0,0,0,0,0,0,0,0,0,0,0,0,0,0,0,0,0,0,0,0,0,0,0,0,0,0,0,0,0,0,0,0,0,0,0,0,268,269,270,0,0,0,0,0,252,253,254,0,0,0,0,0,0,0,0,0,0,
0,0,0,0,0,0,0,0,268,269,270,0,0,0,0,0,0,0,0,0,0,0,0,0,0,0,0,0,0,0,0,0,0,0,0,0,0,0,0,0,0,0,0,0,0,0,0,0,0,0,0,0,0,0,0,0,0,0,0,284,285,286,0,0,0,0,0,268,269,270,0,0,0,0,0,0,0,0,0,0,
0,0,0,0,0,0,0,0,284,285,286,0,0,0,0,0,0,0,0,0,0,0,0,0,0,0,0,0,0,0,0,0,0,0,0,0,0,0,0,0,0,0,0,0,0,0,0,0,0,0,0,0,0,0,0,0,0,0,0,300,301,302,0,0,0,0,0,284,285,286,0,0,0,0,0,0,0,0,0,0,
0,0,0,0,0,0,0,0,300,301,302,0,0,0,0,0,0,0,0,0,0,0,0,0,0,0,0,0,0,0,0,0,0,0,0,0,0,0,0,0,0,0,0,0,0,0,0,0,0,0,0,0,0,0,0,0,0,0,0,0,0,0,0,0,0,0,0,300,301,302,0,0,0,0,0,0,0,0,0,0,
0,0,0,0,0,0,0,0,0,0,0,0,0,0,0,0,0,0,0,0,0,0,0,0,0,0,0,0,0,0,0,0,0,0,0,0,0,0,0,0,0,0,0,0,0,0,0,0,0,0,0,0,0,0,0,0,0,0,0,0,0,0,0,0,0,0,0,0,0,0,0,0,0,0,0,0,0,0,0,0,
0,0,0,0,0,0,0,0,0,0,0,0,0,0,0,0,0,0,0,0,0,0,0,0,0,0,0,0,0,0,0,0,0,0,0,0,0,0,0,0,0,0,0,0,0,0,0,0,0,0,0,0,0,0,0,0,0,0,0,0,0,0,0,0,0,0,0,0,0,0,0,0,0,0,0,0,0,0,0,0,
0,0,0,0,0,0,0,0,0,0,0,0,0,0,0,0,0,0,0,0,0,0,0,0,0,0,2147483749,0,0,0,0,0,0,0,0,0,0,0,0,0,0,0,0,0,0,0,0,0,0,0,0,101,0,0,0,0,0,0,0,0,0,0,0,0,0,0,0,0,0,0,0,0,0,0,0,0,0,0,0,0,
0,0,0,0,0,0,0,0,0,0,0,0,0,0,0,0,0,0,0,0,0,0,0,0,0,0,0,0,0,0,0,0,0,0,0,0,0,0,0,0,0,0,0,0,0,0,0,0,0,0,0,0,0,0,0,0,0,0,0,0,0,0,0,0,0,0,0,0,0,0,0,0,0,0,0,0,0,0,0,0,
0,0,0,0,0,0,0,0,0,0,0,0,0,0,0,0,0,0,0,0,0,0,0,0,0,0,0,0,0,0,0,0,0,0,0,0,0,0,0,0,0,0,0,0,0,0,0,0,0,0,0,0,0,0,0,0,0,0,0,0,0,0,0,0,0,0,0,0,0,0,0,0,0,0,0,0,0,0,0,0,
0,0,0,0,0,0,0,0,0,0,0,0,0,0,0,0,0,0,0,0,0,0,0,0,0,0,0,0,0,0,0,0,0,0,0,0,0,0,0,0,0,0,0,0,0,0,0,0,0,0,0,0,0,0,0,0,0,0,0,0,0,0,0,0,0,0,0,0,0,0,0,0,0,0,0,0,0,0,0,0,
0,0,0,0,0,0,0,0,0,0,0,0,0,0,0,0,0,0,0,0,0,0,0,0,0,0,0,0,0,0,0,0,0,0,0,0,0,0,0,0,0,0,0,0,0,0,0,0,0,0,0,0,0,0,0,0,0,0,0,0,0,0,0,0,0,0,0,0,0,0,0,0,0,0,0,0,0,0,0,0
</data>
 </layer>
 <layer id="17" name="Tree" width="80" height="80">
  <data encoding="csv">
0,0,0,0,0,0,0,0,0,0,0,0,0,0,0,0,0,0,0,0,0,0,0,0,0,0,0,0,0,0,0,0,0,0,0,0,0,0,0,0,0,0,0,0,0,0,0,0,0,0,0,0,0,0,0,0,0,0,0,0,0,0,0,0,0,0,0,0,0,0,0,0,0,0,0,0,0,0,0,0,
0,0,0,0,0,0,0,0,0,0,0,0,0,0,0,0,0,0,0,0,0,0,0,0,0,0,0,0,0,0,0,0,0,0,0,0,0,0,0,0,0,0,0,0,0,0,0,0,0,0,0,0,0,0,0,0,0,0,0,0,0,0,0,0,0,0,0,0,0,0,0,0,0,0,0,0,0,0,0,0,
0,0,0,0,0,0,0,0,0,0,0,0,0,0,0,0,0,0,0,0,0,0,0,0,0,0,0,0,0,0,0,0,0,0,0,0,0,0,0,0,0,0,0,0,0,0,0,0,0,0,0,0,0,0,0,0,0,0,0,0,0,0,0,0,0,0,0,0,0,0,0,0,0,0,0,0,0,0,0,0,
0,0,0,0,0,0,0,0,0,0,0,0,0,0,0,0,0,0,0,0,0,0,0,0,0,0,0,0,0,0,0,0,0,0,0,0,0,0,0,0,0,0,0,0,0,0,0,0,0,0,0,0,0,0,0,0,0,0,0,0,0,0,0,0,0,0,0,0,0,0,0,0,0,0,0,0,0,0,0,0,
0,0,0,0,0,0,0,0,0,0,0,0,0,0,0,0,0,0,0,0,0,0,0,0,0,0,0,0,0,0,0,0,0,0,0,0,0,0,0,0,0,0,0,0,0,0,0,0,0,0,0,0,0,0,0,0,0,0,0,0,0,0,0,0,0,0,0,0,0,0,0,0,0,0,0,0,0,0,0,0,
0,0,0,0,0,0,0,0,0,0,0,0,0,0,0,0,0,0,0,0,0,0,0,0,0,0,0,0,0,0,0,0,0,0,0,0,0,0,0,0,0,0,0,0,0,0,0,0,0,0,0,0,0,0,0,0,0,0,0,0,0,0,0,0,0,0,0,0,0,0,0,0,0,0,0,0,0,0,0,0,
0,0,0,0,0,0,0,0,0,0,0,0,0,0,0,0,0,0,0,0,0,0,0,0,0,0,0,0,0,0,0,0,0,0,0,0,0,0,0,0,0,0,0,0,0,0,0,0,0,0,0,0,0,0,0,0,0,0,0,0,0,0,0,0,0,0,0,0,0,0,0,0,0,0,0,0,0,0,0,0,
0,0,0,0,0,0,0,0,0,0,0,0,0,0,0,0,0,0,0,0,0,0,0,0,0,0,0,0,0,0,0,0,0,0,0,0,0,0,0,0,0,0,0,0,0,0,0,0,0,0,0,0,0,0,0,0,0,0,0,0,0,0,0,0,0,0,0,0,0,0,0,0,0,0,0,0,0,0,0,0,
0,0,0,0,0,0,0,0,0,0,0,0,0,0,0,0,0,0,0,0,0,0,0,0,0,0,0,0,0,0,0,0,0,0,0,0,0,0,0,0,0,0,0,0,0,0,0,0,0,0,0,0,0,0,0,0,0,0,0,0,0,0,0,0,0,0,0,0,0,0,0,0,0,0,0,0,0,0,0,0,
0,0,0,0,0,0,0,0,0,0,0,0,0,0,0,0,0,0,0,0,0,0,0,0,0,0,0,0,0,0,0,0,0,0,0,0,0,0,0,0,0,0,0,0,0,0,0,0,0,0,0,0,0,0,0,0,0,0,0,0,0,0,0,0,0,0,0,0,0,0,0,0,0,0,0,0,0,0,0,0,
0,0,0,0,0,0,0,0,0,0,0,0,0,0,0,0,0,0,0,0,0,0,0,0,0,0,0,0,0,0,0,0,0,0,0,0,0,0,0,0,0,0,0,0,0,0,0,0,0,0,0,0,0,0,0,0,0,0,0,0,0,0,0,0,0,0,0,0,0,0,0,0,0,0,0,0,0,0,0,0,
0,0,0,0,0,0,0,0,0,0,0,0,0,0,0,0,0,0,0,0,0,0,0,0,0,0,0,0,0,0,0,0,0,0,0,0,0,0,0,0,0,0,0,0,0,0,0,0,0,0,0,0,0,0,0,0,0,0,0,0,0,0,0,0,0,0,0,0,0,0,0,0,0,0,0,0,0,0,0,0,
0,0,0,0,0,0,0,0,0,0,0,0,0,0,0,0,0,0,0,0,0,0,0,0,0,0,0,0,0,0,0,0,0,0,0,0,0,0,0,0,0,0,0,0,0,0,0,0,0,0,0,0,0,0,0,0,0,0,0,0,0,0,0,0,0,0,0,0,0,0,0,0,0,0,0,0,0,0,0,0,
0,0,0,0,0,0,0,0,0,0,0,0,0,0,0,0,0,0,0,0,0,0,0,0,0,0,0,0,0,0,0,0,0,0,0,0,0,0,0,0,0,0,0,0,0,0,0,0,0,0,0,0,0,0,0,0,0,0,0,0,0,0,0,0,0,0,0,0,0,0,0,0,0,0,0,0,0,0,0,0,
0,0,0,0,0,0,0,0,0,0,0,0,0,0,0,0,0,0,0,0,0,0,0,0,0,0,0,0,0,0,0,0,0,0,0,0,0,0,0,0,0,0,0,0,0,0,0,0,0,0,0,0,0,0,0,0,0,0,0,0,0,0,0,0,0,0,0,0,0,0,0,0,0,0,0,0,0,0,0,0,
0,0,0,0,0,0,0,0,0,0,0,0,0,0,0,0,0,0,0,0,0,0,0,0,0,0,0,0,0,0,0,0,0,0,0,0,0,0,0,0,0,0,0,0,0,0,0,0,0,0,0,0,0,0,0,0,0,0,0,0,0,0,0,0,0,0,0,0,0,0,0,0,0,0,0,0,0,0,0,0,
0,0,0,0,0,0,0,0,0,0,0,0,0,0,0,0,0,0,0,0,0,0,0,0,0,0,0,0,0,0,0,0,0,0,0,0,0,0,0,0,0,0,0,0,0,0,0,0,0,0,0,0,0,0,0,0,0,0,0,0,0,0,0,0,0,0,0,0,0,0,0,0,0,0,0,0,0,0,0,0,
0,0,0,0,0,0,0,0,0,0,0,0,0,0,0,0,0,0,0,0,0,0,0,0,0,0,0,0,0,0,0,0,0,0,0,0,0,0,0,0,0,0,0,0,0,0,0,0,0,0,0,0,0,0,0,0,0,0,0,0,0,0,0,0,0,0,0,0,0,0,0,0,0,0,0,0,0,0,0,0,
0,0,0,0,0,0,0,0,0,0,0,0,0,0,0,0,0,0,0,0,0,0,0,0,0,0,0,0,0,0,0,0,0,0,0,0,0,0,0,0,0,0,0,0,0,0,0,0,0,0,0,0,0,0,0,0,0,0,0,0,0,0,0,0,0,0,0,0,0,0,0,0,0,0,0,0,0,0,0,0,
0,0,0,0,0,0,0,0,0,0,0,0,0,0,0,0,0,0,0,0,0,0,0,0,0,0,0,0,0,0,0,0,0,0,0,0,0,0,0,0,0,0,0,0,0,0,0,0,0,0,0,0,0,0,0,0,0,0,0,0,0,0,0,0,0,0,0,0,0,0,0,0,0,0,0,0,0,0,0,0,
0,0,0,0,0,0,0,0,0,0,0,0,0,0,0,0,0,0,0,0,0,0,0,0,0,0,0,0,0,0,0,0,0,0,0,0,0,0,0,0,0,0,0,0,0,0,0,0,0,0,0,0,0,0,0,0,0,0,0,0,0,0,231,232,233,234,235,0,0,0,0,0,0,0,0,0,0,0,0,0,
0,0,0,0,0,0,0,0,0,0,0,0,0,0,0,0,0,0,0,0,0,0,0,0,0,0,0,0,0,0,0,0,0,0,0,0,0,0,0,0,0,0,0,0,0,0,0,0,0,0,0,0,0,0,0,0,0,0,0,0,0,0,247,248,249,250,251,0,0,0,0,0,0,0,0,0,0,0,0,0,
0,0,0,0,0,0,0,0,0,0,0,0,0,0,0,0,0,0,0,0,0,0,0,0,0,0,0,0,0,0,0,0,0,0,0,0,0,0,0,0,0,0,0,0,0,0,0,0,0,0,0,0,0,0,0,0,0,0,0,0,0,0,263,264,265,266,267,0,0,0,0,0,0,0,0,0,0,0,0,0,
0,0,0,0,0,0,0,0,0,0,0,0,0,0,0,0,0,0,0,0,0,0,0,0,0,0,0,0,0,0,0,0,0,0,0,0,0,0,0,0,0,0,0,0,0,0,0,0,0,0,0,0,0,0,0,0,0,0,0,0,0,0,279,280,281,282,283,0,0,0,0,0,0,0,0,0,0,0,0,0,
0,0,0,0,0,0,0,0,0,0,0,0,0,0,0,0,0,0,0,0,0,0,0,0,0,0,0,0,0,0,0,0,0,0,0,0,0,0,0,0,0,0,0,0,0,0,0,0,0,0,0,0,0,0,0,0,0,0,0,0,0,0,295,296,297,298,299,0,0,0,0,0,0,0,0,0,0,0,0,0,
0,0,0,0,0,0,0,0,0,0,0,0,0,0,0,0,0,0,0,0,0,0,0,0,0,0,0,0,0,0,0,0,0,0,0,0,0,0,0,0,0,0,0,0,0,0,0,0,0,0,0,0,0,0,0,0,0,0,0,0,0,0,0,0,0,0,0,0,0,0,0,0,0,0,0,0,0,0,0,0,
0,0,0,0,0,0,0,0,0,0,0,0,0,0,0,0,0,0,0,0,0,0,0,0,0,0,0,0,0,0,0,0,0,0,0,0,0,0,0,0,0,0,0,0,0,0,0,0,0,0,0,0,0,0,0,0,0,0,0,0,0,0,0,0,0,0,0,0,0,0,0,0,0,0,0,0,0,0,0,0,
0,0,0,0,0,0,0,0,0,0,0,0,0,0,0,0,0,0,0,0,0,0,0,0,0,0,0,0,0,0,0,0,0,0,0,0,0,0,0,0,0,0,0,0,0,0,0,0,0,0,0,0,0,0,0,0,0,0,0,0,0,0,0,0,0,0,0,0,0,0,0,0,0,0,0,0,0,0,0,0,
0,0,0,0,0,0,0,0,0,0,0,0,0,0,0,0,0,0,0,0,0,0,0,0,0,0,0,0,0,0,0,0,0,0,0,0,0,0,0,0,0,0,0,0,0,0,0,0,0,0,0,0,0,0,0,0,0,0,0,0,0,0,0,0,0,0,0,0,0,0,0,0,0,0,0,0,0,0,0,0,
0,0,0,0,0,0,0,0,0,0,0,0,0,0,0,0,0,0,0,0,0,0,0,0,0,0,0,0,0,0,0,0,0,0,0,0,0,0,0,0,0,0,0,0,0,0,0,0,0,0,0,0,0,0,0,0,0,0,0,0,0,0,0,0,0,0,0,0,0,0,0,0,0,0,0,0,0,0,0,0,
0,0,0,0,0,0,0,0,0,0,0,0,0,0,0,0,0,0,0,0,0,0,0,0,0,0,0,0,0,0,0,0,0,0,0,0,0,0,0,0,0,0,0,0,0,0,0,0,0,0,0,0,0,0,0,0,0,0,0,0,0,0,0,0,0,0,0,0,0,0,0,0,0,0,0,0,0,0,0,0,
0,0,0,0,0,0,0,0,0,0,0,0,0,0,0,0,0,0,0,0,0,0,0,0,0,0,0,0,0,0,0,0,0,0,0,0,0,0,0,0,0,0,0,0,0,0,0,0,0,0,0,0,0,0,0,0,0,0,0,0,0,0,0,0,0,0,0,0,0,0,0,0,0,0,0,0,0,0,0,0,
0,0,0,0,0,0,0,0,0,0,0,0,0,0,0,0,0,0,0,0,0,0,0,0,0,0,0,0,0,0,0,0,0,0,0,0,0,0,0,0,0,0,0,0,0,0,0,0,0,0,0,0,0,0,0,0,0,0,0,0,0,0,0,0,0,0,0,0,0,0,0,0,0,0,0,0,0,0,0,0,
0,0,0,0,0,0,0,0,0,0,0,0,0,0,0,0,0,0,0,0,0,0,0,0,0,0,0,0,0,0,0,0,0,0,0,0,0,0,0,0,0,0,0,0,0,0,0,0,0,0,0,0,0,0,0,0,0,0,0,0,0,0,0,0,0,0,0,0,0,0,0,0,0,0,0,0,0,0,0,0,
0,0,0,0,0,0,0,0,0,0,0,0,0,0,0,0,0,0,0,0,0,0,0,0,0,0,0,0,0,0,0,0,0,0,0,0,0,0,0,0,0,0,0,0,0,0,0,0,0,0,0,0,0,0,0,0,0,0,0,0,0,0,0,0,0,0,0,0,0,0,0,0,0,0,0,0,0,0,0,0,
0,0,0,0,0,0,0,0,0,0,0,0,0,0,0,0,0,0,0,0,0,0,0,231,232,233,234,235,0,0,0,0,0,0,0,0,0,0,0,0,0,0,0,0,0,0,0,0,0,0,231,232,233,234,235,0,0,0,0,0,0,0,0,0,0,0,0,0,0,0,0,0,0,0,0,0,0,0,0,0,
0,0,0,0,0,0,0,0,0,0,0,0,0,0,0,0,0,0,0,0,0,0,0,247,248,249,250,251,0,0,0,0,0,0,0,0,0,0,0,0,0,0,0,0,0,0,0,0,0,0,247,248,249,250,251,0,0,0,0,0,0,0,0,0,0,0,0,0,0,0,0,0,0,0,0,0,0,0,0,0,
0,0,0,0,0,0,0,0,0,0,0,0,0,0,0,0,0,0,0,0,0,0,0,263,264,265,266,267,0,0,0,0,0,0,0,0,0,0,0,0,0,0,0,0,0,0,0,0,0,0,263,264,265,266,267,0,0,0,0,0,0,0,0,0,0,0,0,0,0,0,0,0,0,0,0,0,0,0,0,0,
0,0,0,0,0,0,0,0,0,0,0,0,0,0,0,0,0,0,0,0,0,0,0,279,280,281,282,283,0,0,0,0,0,0,0,0,0,0,0,0,0,0,0,0,0,0,0,0,0,0,279,280,281,282,283,0,0,0,0,0,0,0,0,0,0,0,0,0,0,0,0,0,0,0,0,0,0,0,0,0,
0,0,0,0,0,0,0,0,0,0,0,0,0,0,0,0,0,0,0,0,0,0,0,295,296,297,298,299,0,0,0,0,0,0,0,0,0,0,0,0,0,0,0,0,0,0,0,0,0,0,295,101,297,298,299,0,0,0,0,0,0,0,0,0,0,0,0,0,0,0,0,0,0,0,0,0,0,0,0,0,
0,0,0,0,0,0,0,0,0,0,0,0,0,0,0,0,0,0,0,0,0,0,0,0,0,0,0,0,0,0,0,0,0,0,0,0,0,0,0,0,0,0,0,0,0,0,0,0,0,0,0,0,0,0,0,0,0,0,0,0,0,0,0,0,0,0,0,0,0,0,0,0,0,0,0,0,0,0,0,0,
0,0,0,0,0,0,0,0,0,0,0,0,0,0,0,0,0,0,0,0,0,0,0,0,236,237,238,0,0,0,0,0,0,0,0,0,0,0,0,0,0,0,0,0,0,0,0,0,0,0,0,236,237,238,0,0,0,0,0,0,0,0,0,0,0,0,0,0,0,0,0,0,0,0,0,0,0,0,0,0,
0,0,0,0,0,0,0,0,0,0,0,0,0,0,0,0,0,0,0,0,0,0,0,0,252,253,254,0,0,0,0,0,0,0,0,0,0,0,0,0,0,0,0,0,0,0,0,0,0,0,0,252,253,254,0,0,0,0,0,0,0,0,0,0,0,0,0,0,0,0,0,0,0,0,0,0,0,0,0,0,
0,0,0,0,0,0,0,0,0,0,0,0,0,0,0,0,0,0,0,0,0,0,0,0,268,269,270,0,0,0,0,0,0,0,0,0,0,0,0,0,0,0,0,0,0,0,0,0,0,0,0,268,269,270,0,0,0,0,0,0,0,0,0,0,0,0,0,0,0,0,0,0,0,0,0,0,0,0,0,0,
0,0,0,0,0,0,0,0,0,0,0,0,0,0,0,0,0,0,0,0,0,0,0,0,284,285,286,0,0,0,0,0,0,0,0,0,0,0,0,0,0,0,0,0,0,0,0,0,0,0,0,284,285,286,0,0,0,0,0,0,0,0,0,0,0,0,0,0,0,0,0,0,0,0,0,0,0,0,0,0,
0,0,0,0,0,0,0,0,0,0,0,0,0,0,0,0,0,0,0,0,0,0,0,0,300,301,302,0,0,0,0,0,0,0,0,0,0,0,0,0,0,0,0,0,0,0,0,0,0,0,0,0,301,302,0,0,0,0,0,0,0,0,0,0,0,0,0,0,0,0,0,0,0,0,0,0,0,0,0,0,
0,0,0,0,0,0,0,0,0,0,0,0,0,0,0,0,0,0,0,0,0,0,0,0,0,0,0,0,0,0,0,0,0,0,0,0,0,0,0,0,0,0,0,0,0,0,0,0,0,0,0,0,0,0,0,0,0,0,0,0,0,0,0,0,0,0,0,0,0,0,0,0,0,0,0,0,0,0,0,0,
0,0,0,0,0,0,0,0,0,0,0,0,0,0,0,0,0,0,0,0,0,0,0,0,0,0,0,0,0,0,0,0,0,0,0,0,0,0,0,0,0,0,0,0,0,0,0,0,0,0,0,0,0,0,0,0,0,0,0,0,0,0,0,0,0,0,0,0,0,0,0,0,0,0,0,0,0,0,0,0,
0,0,0,0,0,0,0,0,0,0,0,0,0,0,0,0,0,0,0,0,0,0,0,0,256,257,258,0,0,0,0,0,0,0,0,0,0,0,0,0,0,0,0,0,0,0,0,0,0,0,0,256,257,258,0,0,0,0,0,0,0,0,0,0,0,0,0,0,0,0,0,0,0,0,0,0,0,0,0,0,
0,0,0,0,0,0,0,0,0,0,0,0,0,0,0,0,0,0,0,0,0,0,0,0,272,273,274,0,0,0,0,0,0,0,0,0,0,0,0,0,0,0,0,0,0,0,0,0,0,0,0,272,273,274,0,0,0,0,0,0,0,0,0,0,0,0,0,0,0,0,0,0,0,0,0,0,0,0,0,0,
0,0,0,0,0,0,0,0,0,0,0,0,0,0,0,0,0,0,0,0,0,0,0,0,288,289,290,0,0,0,0,0,0,0,0,0,0,0,0,0,0,0,0,0,0,0,0,0,0,0,0,288,289,290,0,0,0,0,0,0,0,0,0,0,0,0,0,0,0,0,0,0,0,0,0,0,0,0,0,0,
0,0,0,0,0,0,0,0,0,0,0,0,0,0,0,0,0,0,0,0,0,0,0,0,304,305,306,0,0,0,0,0,0,0,0,0,0,0,0,0,0,0,0,0,0,0,0,0,0,0,0,304,305,306,0,0,0,0,0,0,0,0,0,0,0,0,0,0,0,0,0,0,0,0,0,0,0,0,0,0,
0,0,0,0,0,0,0,0,0,0,0,0,0,0,0,0,0,0,0,0,0,0,0,247,0,0,0,251,0,0,0,0,0,0,0,0,0,0,0,0,0,0,0,0,0,0,0,0,0,0,0,0,0,0,0,0,0,0,0,0,0,0,0,0,0,0,0,0,0,0,0,0,0,0,0,0,0,0,0,0,
0,0,0,0,0,0,0,0,0,0,0,0,0,0,0,0,0,0,0,0,0,0,0,0,0,0,0,0,0,0,0,0,0,0,0,0,0,0,0,0,0,0,0,0,0,0,0,0,0,0,0,256,257,258,0,0,0,0,0,0,0,0,0,0,0,0,0,0,0,0,0,0,0,0,0,0,0,0,0,0,
0,0,0,0,0,0,0,0,0,0,0,0,0,0,0,0,0,0,0,0,0,0,0,0,0,0,0,283,0,0,0,0,0,0,0,0,0,0,0,0,0,0,0,0,0,0,0,0,0,0,0,272,273,274,0,0,0,0,0,0,0,0,0,0,0,0,0,0,0,0,0,0,0,0,0,0,0,0,0,0,
0,0,0,0,0,0,0,0,0,0,0,0,0,0,0,0,0,0,0,0,0,0,0,295,0,0,298,299,0,0,0,0,0,0,0,0,0,0,0,0,0,0,0,0,0,0,0,0,0,0,0,288,289,290,0,0,0,0,0,0,0,0,0,0,0,0,0,0,0,0,0,0,0,0,0,0,0,0,0,0,
0,0,0,0,0,0,0,0,0,0,0,0,0,0,0,0,0,0,0,0,0,0,0,0,0,0,0,0,0,0,0,0,0,0,0,0,0,0,0,0,0,0,0,0,0,0,0,0,0,0,0,304,305,306,0,0,0,0,0,0,0,0,0,0,0,0,0,0,0,0,0,0,0,0,0,0,0,0,0,0,
0,0,0,0,0,0,0,0,0,0,0,0,0,0,0,0,0,0,0,0,0,0,0,0,0,0,0,0,0,0,0,0,0,0,0,0,0,0,0,0,0,0,0,0,0,0,0,0,0,0,0,0,0,0,0,0,0,0,0,0,0,0,0,0,0,0,0,0,0,0,0,0,0,0,0,0,0,0,0,0,
0,0,0,0,0,0,0,0,0,0,0,0,0,0,0,0,0,0,0,0,0,0,231,232,233,234,235,0,0,0,0,0,0,0,0,0,0,0,0,0,0,0,0,0,0,0,0,0,0,0,0,236,237,238,0,0,0,0,0,0,0,0,0,0,0,0,0,0,0,0,0,0,0,0,0,0,0,0,0,0,
0,0,0,0,0,0,0,0,0,0,0,0,0,0,0,0,0,0,0,0,0,0,247,248,249,250,251,0,0,0,0,0,0,0,0,0,0,0,0,0,0,0,0,0,0,0,0,0,0,0,0,252,253,254,0,0,0,0,0,0,0,0,0,0,0,0,0,0,0,0,0,0,0,0,0,0,0,0,0,0,
0,0,0,0,0,0,0,0,0,0,0,0,0,0,0,0,0,0,0,0,0,0,263,264,265,266,267,0,0,0,0,0,0,0,0,0,0,0,0,0,0,0,0,0,0,0,0,0,0,0,0,268,269,270,0,0,0,0,0,0,0,0,0,0,0,0,0,0,0,0,0,0,0,0,0,0,0,0,0,0,
0,0,0,0,0,0,0,0,0,0,0,0,0,0,0,0,0,0,0,0,0,0,279,280,281,282,283,0,0,0,0,0,0,0,0,0,0,0,0,0,0,0,0,0,0,0,0,0,0,0,0,284,285,286,0,0,0,0,0,0,0,0,0,0,0,0,0,0,0,0,0,0,0,0,0,0,0,0,0,0,
0,0,0,0,0,0,0,0,0,0,0,0,0,0,0,0,0,0,0,0,0,0,295,296,297,298,299,0,0,0,0,0,0,0,0,0,0,0,0,0,0,0,0,0,0,0,0,0,0,0,0,300,301,302,0,0,0,0,0,0,0,0,0,0,0,0,0,0,0,0,0,0,0,0,0,0,0,0,0,0,
0,0,0,0,0,0,0,0,0,0,0,0,0,0,0,0,0,0,0,0,0,0,0,0,0,0,0,0,0,0,0,0,0,0,0,0,0,0,0,0,0,0,0,0,0,0,0,0,0,0,0,0,0,0,0,0,0,0,0,0,0,0,0,0,0,0,0,0,0,0,0,0,0,0,0,0,0,0,0,0,
0,0,0,0,0,0,0,0,0,0,0,0,0,0,0,0,0,0,0,0,0,0,0,231,232,233,234,235,0,0,0,0,0,0,0,0,0,0,0,0,0,0,0,0,0,0,0,0,0,0,231,232,233,234,235,0,0,0,0,0,0,0,0,0,0,0,0,0,0,0,0,0,0,0,0,0,0,0,0,0,
0,0,0,0,0,0,0,0,0,0,0,0,0,0,0,0,0,0,0,0,0,0,0,247,248,249,250,251,0,0,0,0,0,0,0,0,0,0,0,0,0,0,0,0,0,0,0,0,0,0,247,248,249,250,251,0,0,0,0,0,0,0,0,0,0,0,0,0,0,0,0,0,0,0,0,0,0,0,0,0,
0,0,0,0,0,0,0,0,0,0,0,0,0,0,0,0,0,0,0,0,0,0,0,263,264,265,266,267,0,0,0,0,0,0,0,0,0,0,0,0,0,0,0,0,0,0,0,0,0,0,263,264,265,266,267,0,0,0,0,0,0,0,0,0,0,0,0,0,0,0,0,0,0,0,0,0,0,0,0,0,
0,0,0,0,0,0,0,0,0,0,0,0,0,0,0,0,0,0,0,0,0,0,0,279,280,281,282,283,0,0,0,0,0,0,0,0,0,0,0,0,0,0,0,0,0,0,0,0,0,0,279,280,281,282,283,0,0,0,0,0,0,0,0,0,0,0,0,0,0,0,0,0,0,0,0,0,0,0,0,0,
0,0,0,0,0,0,0,0,0,0,0,0,0,0,0,0,0,0,0,0,0,0,0,295,296,297,298,299,0,0,0,0,0,0,0,0,0,0,0,0,0,0,0,0,0,0,0,0,0,0,295,296,297,298,299,0,0,0,0,0,0,0,0,0,0,0,0,0,0,0,0,0,0,0,0,0,0,0,0,0,
0,0,0,0,0,0,0,0,0,0,0,0,0,0,0,0,0,0,0,0,0,0,0,0,0,0,0,0,0,0,0,0,0,0,0,0,0,0,0,0,0,0,0,0,0,0,0,0,0,0,0,0,0,0,0,0,0,0,0,0,0,0,0,0,0,0,0,0,0,0,0,0,0,0,0,0,0,0,0,0,
0,0,0,0,0,0,0,0,0,0,0,0,0,0,0,0,0,0,0,0,0,0,0,0,0,0,0,0,0,0,0,0,0,0,0,0,0,0,0,0,0,0,0,0,0,0,0,0,0,0,0,0,0,0,0,0,0,0,0,0,0,0,0,0,0,0,0,0,0,0,0,0,0,0,0,0,0,0,0,0,
0,0,0,0,0,0,0,0,0,0,0,0,0,0,0,0,0,0,0,0,0,0,0,231,232,233,234,235,0,0,0,0,0,0,0,0,0,0,0,0,0,0,0,0,0,0,0,0,0,0,231,232,233,234,235,0,0,0,0,0,0,0,0,0,0,0,0,0,0,0,0,0,0,0,0,0,0,0,0,0,
0,0,0,0,0,0,0,0,0,0,0,0,0,0,0,0,0,0,0,0,0,0,0,247,248,249,250,251,0,0,0,0,0,0,0,0,0,0,0,0,0,0,0,0,0,0,0,0,0,0,247,248,249,250,251,0,0,0,0,0,0,0,0,0,0,0,0,0,0,0,0,0,0,0,0,0,0,0,0,0,
0,0,0,0,0,0,0,0,0,0,0,0,0,0,0,0,0,0,0,0,0,0,0,263,264,265,266,267,0,0,0,0,0,0,0,0,0,0,0,0,0,0,0,0,0,0,0,0,0,0,263,264,265,266,267,0,0,0,0,0,0,0,0,0,0,0,0,0,0,0,0,0,0,0,0,0,0,0,0,0,
0,0,0,0,0,0,0,0,0,0,0,0,0,0,0,0,0,0,0,0,0,0,0,279,280,281,282,283,0,0,0,0,0,0,0,0,0,0,0,0,0,0,0,0,0,0,0,0,0,0,279,280,281,282,283,0,0,0,0,0,0,0,0,0,0,0,0,0,0,0,0,0,0,0,0,0,0,0,0,0,
0,0,0,0,0,0,0,0,0,0,0,0,0,0,0,0,0,0,0,0,0,0,0,295,296,297,298,299,0,0,0,0,0,0,0,0,0,0,0,0,0,0,0,0,0,0,0,0,0,0,295,296,297,298,299,0,0,0,0,0,0,0,0,0,0,0,0,0,0,0,0,0,0,0,0,0,0,0,0,0,
0,0,0,0,0,0,0,0,0,0,0,0,0,0,0,0,0,0,0,0,0,0,0,0,0,0,0,0,0,0,0,0,0,0,0,0,0,0,0,0,0,0,0,0,0,0,0,0,0,0,0,0,0,0,0,0,0,0,0,0,0,0,0,0,0,0,0,0,0,0,0,0,0,0,0,0,0,0,0,0,
0,0,0,0,0,0,0,0,0,0,0,0,0,0,0,0,0,0,0,0,0,0,0,0,0,0,0,0,0,0,0,0,0,0,0,0,0,0,0,0,0,0,0,0,0,0,0,0,0,0,0,0,0,0,0,0,0,0,0,0,0,0,0,0,0,0,0,0,0,0,0,0,0,0,0,0,0,0,0,0,
0,0,0,0,0,0,0,0,0,0,0,0,0,0,0,0,0,0,0,0,0,0,0,0,0,0,0,0,0,0,0,0,0,0,0,0,0,0,0,0,0,0,0,0,0,0,0,0,0,0,0,0,0,0,0,0,0,0,0,0,0,0,0,0,0,0,0,0,0,0,0,0,0,0,0,0,0,0,0,0,
0,0,0,0,0,0,0,0,0,0,0,0,0,0,0,0,0,0,0,0,0,0,0,0,0,0,0,0,0,0,0,0,0,0,0,0,0,0,0,0,0,0,0,0,0,0,0,0,0,0,0,0,0,0,0,0,0,0,0,0,0,0,0,0,0,0,0,0,0,0,0,0,0,0,0,0,0,0,0,0
</data>
 </layer>
 <objectgroup id="3" name="HUST">
  <object id="4" gid="117" x="1147.67" y="1442.63" width="270.394" height="129.789"/>
  <object id="8" gid="94" x="996.08" y="862.194" width="100.735" height="313.313"/>
  <object id="9" gid="2147483742" x="1468.01" y="864.004" width="100.735" height="313.313"/>
 </objectgroup>
 <objectgroup id="4" name="ThuVien2">
  <object id="11" gid="92" x="1088.02" y="586.668" width="389.148" height="99.8859"/>
 </objectgroup>
 <objectgroup id="2" name="ThuVien">
  <object id="1" gid="93" x="1048.25" y="1167" width="458.151" height="280.072"/>
  <object id="6" gid="94" x="996.15" y="1107.36" width="100.735" height="313.313"/>
  <object id="10" gid="2147483742" x="1467.95" y="1109.16" width="100.735" height="313.313"/>
  <object id="33" gid="136" x="1029.42" y="691.828" width="47.7586" height="62.824"/>
  <object id="34" gid="136" x="1135.85" y="653.785" width="64.3305" height="79.9989"/>
  <object id="36" gid="136" x="1135.85" y="705.008" width="64.3305" height="79.9989"/>
  <object id="37" gid="136" x="1135.85" y="763.465" width="64.3305" height="79.9989"/>
  <object id="38" gid="136" x="1135.85" y="818.303" width="64.3305" height="79.9989"/>
  <object id="39" gid="136" x="1135.85" y="868.322" width="64.3305" height="79.9989"/>
  <object id="40" gid="136" x="1137.06" y="929.79" width="64.3305" height="79.9989"/>
  <object id="41" gid="136" x="1199.74" y="654.987" width="64.3305" height="79.9989"/>
  <object id="42" gid="136" x="1199.74" y="706.209" width="64.3305" height="79.9989"/>
  <object id="43" gid="136" x="1199.74" y="764.665" width="64.3305" height="79.9989"/>
  <object id="44" gid="136" x="1199.74" y="819.503" width="64.3305" height="79.9989"/>
  <object id="45" gid="136" x="1199.74" y="869.528" width="64.3305" height="79.9989"/>
  <object id="46" gid="136" x="1200.94" y="930.99" width="64.3305" height="79.9989"/>
  <object id="47" gid="136" x="1261.8" y="656.195" width="64.3305" height="79.9989"/>
  <object id="48" gid="136" x="1261.8" y="707.416" width="64.3305" height="79.9989"/>
  <object id="49" gid="136" x="1261.8" y="765.878" width="64.3305" height="79.9989"/>
  <object id="50" gid="136" x="1261.8" y="820.715" width="64.3305" height="79.9989"/>
  <object id="51" gid="136" x="1261.8" y="870.734" width="64.3305" height="79.9989"/>
  <object id="52" gid="136" x="1263.01" y="932.2" width="64.3305" height="79.9989"/>
  <object id="59" gid="136" x="1326.28" y="655.593" width="64.3305" height="79.9989"/>
  <object id="60" gid="136" x="1326.28" y="706.816" width="64.3305" height="79.9989"/>
  <object id="61" gid="136" x="1326.28" y="765.274" width="64.3305" height="79.9989"/>
  <object id="62" gid="136" x="1326.28" y="820.112" width="64.3305" height="79.9989"/>
  <object id="63" gid="136" x="1326.28" y="870.131" width="64.3305" height="79.9989"/>
  <object id="64" gid="136" x="1327.5" y="931.6" width="64.3305" height="79.9989"/>
  <object id="65" gid="136" x="1385.34" y="654.987" width="64.3305" height="79.9989"/>
  <object id="66" gid="136" x="1385.34" y="706.209" width="64.3305" height="79.9989"/>
  <object id="67" gid="136" x="1385.34" y="764.665" width="64.3305" height="79.9989"/>
  <object id="68" gid="136" x="1385.34" y="819.503" width="64.3305" height="79.9989"/>
  <object id="69" gid="136" x="1385.34" y="869.528" width="64.3305" height="79.9989"/>
  <object id="70" gid="136" x="1386.55" y="930.99" width="64.3305" height="79.9989"/>
 </objectgroup>
 <objectgroup id="5" name="ThuVien3">
  <object id="14" gid="135" x="1423.27" y="671.29" width="54.0107" height="42.4854"/>
  <object id="15" gid="135" x="1423.27" y="628.814" width="54.0107" height="42.4854"/>
  <object id="16" gid="135" x="1423.27" y="713.672" width="54.0107" height="42.4854"/>
  <object id="17" gid="135" x="1423.35" y="755.251" width="54.0107" height="42.4854"/>
  <object id="18" gid="135" x="1423.01" y="836.805" width="54.0107" height="42.4854"/>
  <object id="19" gid="135" x="1423.01" y="794.331" width="54.0107" height="42.4854"/>
  <object id="20" gid="135" x="1423.01" y="879.189" width="54.0107" height="42.4854"/>
  <object id="21" gid="135" x="1423.08" y="920.77" width="54.0107" height="42.4854"/>
  <object id="22" gid="2147483783" x="1086.68" y="670.283" width="54.0107" height="42.4854"/>
  <object id="23" gid="2147483783" x="1086.68" y="627.806" width="54.0107" height="42.4854"/>
  <object id="24" gid="2147483783" x="1086.68" y="712.664" width="54.0107" height="42.4854"/>
  <object id="25" gid="2147483783" x="1086.61" y="754.244" width="54.0107" height="42.4854"/>
  <object id="26" gid="2147483783" x="1086.95" y="835.798" width="54.0107" height="42.4854"/>
  <object id="27" gid="2147483783" x="1086.95" y="793.323" width="54.0107" height="42.4854"/>
  <object id="28" gid="2147483783" x="1086.95" y="878.182" width="54.0107" height="42.4854"/>
  <object id="29" gid="2147483783" x="1086.87" y="919.76" width="54.0107" height="42.4854"/>
  <object id="71" gid="114" x="1074.02" y="480.591" width="108.775" height="61.016"/>
  <object id="72" gid="2147483762" x="1379.69" y="478.27" width="108.775" height="61.016"/>
  <object id="73" gid="115" x="1177.81" y="497.478" width="206.853" height="29.9808"/>
  <object id="74" gid="96" x="1476.72" y="563.617" width="109.377" height="42.9373"/>
  <object id="75" gid="2147483744" x="980" y="561.809" width="109.377" height="42.9373"/>
  <object id="82" gid="129" x="1384.13" y="428.861" width="60.0734" height="93.0856" rotation="90.1087"/>
  <object id="83" gid="129" x="1087.81" y="429.844" width="60.0734" height="93.0856" rotation="90.1087"/>
 </objectgroup>
 <objectgroup id="9" name="collision">
  <object id="191" x="2072.38" y="795.97" width="49.3856" height="14.0246"/>
  <object id="204" x="2031.72" y="812.483" width="69.0672" height="21.5835"/>
  <object id="214" x="1149.47" y="1362.91" width="269.198" height="76.7075"/>
  <object id="229" x="993.36" y="547.346" width="102.243" height="561.359"/>
  <object id="230" x="1069.57" y="1054.1" width="26.0227" height="87.655"/>
  <object id="231" x="1162.71" y="1060.95" width="27.3923" height="75.3287"/>
  <object id="232" x="1369.52" y="1059.58" width="16.4353" height="86.2854"/>
  <object id="233" x="1448.96" y="1058.21" width="27.3923" height="84.9164"/>
  <object id="234" x="1464.02" y="515.845" width="106.83" height="591.673"/>
  <object id="235" x="1090.12" y="489.822" width="402.666" height="564.279"/>
  <object id="282" x="520" y="1600" width="13.5" height="24"/>
  <object id="283" x="811" y="1632" width="12" height="22.5"/>
  <object id="284" x="834" y="1631" width="28" height="30"/>
  <object id="285" x="545.5" y="1886" width="68.5" height="28.5"/>
  <object id="286" x="803.5" y="1978" width="28.5" height="33"/>
  <object id="287" x="776" y="1989" width="15.5" height="21"/>
  <object id="288" x="482.5" y="2171" width="73.5" height="34"/>
  <object id="289" x="807.5" y="2176" width="15" height="24"/>
  <object id="290" x="545.5" y="2188"/>
  <object id="291" x="807.5" y="2396.5" width="13" height="31.5"/>
  <object id="292" x="833" y="2399" width="34" height="28"/>
  <object id="293" x="303.5" y="2314" width="1.5"/>
  <object id="294" x="298" y="2304" width="12.5" height="28.5"/>
  <object id="295" x="-28" y="2520" width="2930" height="94"/>
  <object id="296" x="-86" y="-38" width="112" height="2040"/>
  <object id="297" x="-96" y="1954" width="124" height="618"/>
  <object id="298" x="2520" y="-464" width="2184" height="3408"/>
  <object id="299" x="-240" y="-512" width="4088" height="568"/>
  <object id="300" x="744" y="597.333" width="58.6667" height="30.6667"/>
  <object id="301" x="860" y="284" width="89.3333" height="24"/>
  <object id="302" x="1250.67" y="425.333" width="22.6667" height="12"/>
  <object id="303" x="1888" y="500" width="81.3333" height="41.3333"/>
  <object id="304" x="1924" y="1084" width="73.3333" height="21.3333"/>
  <object id="305" x="2057.33" y="764" width="8" height="20"/>
  <object id="306" x="1628" y="1240" width="64" height="36"/>
  <object id="307" x="2120" y="1241.33" width="16" height="32"/>
  <object id="308" x="1665.33" y="1442.67" width="28" height="22.6667"/>
  <object id="309" x="1626.67" y="1625.33" width="36" height="28"/>
  <object id="310" x="1670.67" y="1630.67" width="14.6667" height="17.3333"/>
  <object id="311" x="2022.67" y="1670" width="15" height="19.3333"/>
  <object id="312" x="1675.5" y="1795.5" width="11.5" height="19"/>
  <object id="313" x="1635.5" y="1979.5" width="24" height="30"/>
  <object id="314" x="1672" y="1984.5" width="15" height="22"/>
  <object id="315" x="1675" y="2178" width="9" height="16"/>
  <object id="316" x="1631" y="2400.5" width="30.5" height="25.5"/>
  <object id="317" x="1674.5" y="2403" width="14" height="21.5"/>
  <object id="318" x="1928" y="2273.5" width="12" height="22.5"/>
  <object id="319" x="2186" y="2303" width="9" height="24"/>
  <object id="320" x="2026.5" y="2042.5" width="11.5" height="25.5"/>
  <object id="321" x="2279" y="2055.5" width="17" height="16.5"/>
  <object id="322" x="2346.18" y="319.818" width="8.72727" height="24.9091"/>
  <object id="323" x="1545.25" y="286.25" width="10.75" height="28.25"/>
  <object id="324" x="509" y="104.667" width="69.3333" height="23.6667"/>
  <object id="326" x="1056" y="1055" width="136" height="49"/>
  <object id="328" x="1363" y="1056" width="113" height="52"/>
  <object id="329" x="1152" y="1015" width="238" height="83"/>
 </objectgroup>
 <objectgroup id="10" name="Portals">
  <object id="238" name="Gototang1" x="1193.57" y="1098.33" width="172.147" height="67.3712">
   <properties>
    <property name="spawnX" type="float" value="660"/>
    <property name="spawnY" type="float" value="174"/>
    <property name="target" value="tang1.tmx"/>
   </properties>
  </object>
 </objectgroup>
 <objectgroup id="18" name="Spawn">
  <object id="325" x="1258.67" y="1245.33" width="38.6667" height="33.3333"/>
 </objectgroup>
</map>
